!!!!SEGMENT: pl-cz--iii-195--004_elsner-jozef--missa-f-op-25-sanctus.krn
!!!cenid: 18xx:250
!!!COM: Elsner, Józef
!!!COM-rismID: pe30000957
!!!CDT: 1769/06/01-1854/04/18
!!!CNT: Polish
!!!OPR: Missa F op. 25
!!!OTL: Sanctus
!!!OMV: 004
!!!PDT:
!!!AGN: Sacred; Mass
!!!SMS-siglum: PL-CZ
!!!SMS-shelfmark: III-195
!!!SMS-shelfwork: 001-004 M
!!!NIFC-rismSourceID: 300000255
!!!NIFC-rismChildID: 300000255
!!!NIFC-islandoraID: pl-cz:36060
!!!URL-pdf-islandora: https://repozytorium.nifc.pl/islandora/object/pl-cz%3A36060/datastream/PDF/view
!!!URL-scan:
!!!ONB-nifc: UWAGA: części Mszy: Kyrie, Gloria, Credo, Sanctus, Benedictus, Agnus Dei
!!!AIN: 10 empty
!!!key:
**kern	**fba	**dynam	**kern	**dynam	**mod-dynam	**kern	**dynam	**kern	**dynam	**mod-dynam	**kern	**dynam	**kern	**dynam	**kern	**text	**dynam	**mod-dynam	**kern	**text	**dynam	**mod-dynam	**kern	**text	**dynam	**mod-dynam	**kern	**text	**dynam
*	*	*	*	*	*	*	*	*group2	*	*	*group2	*	*group2	*	*group1	*	*	*	*group1	*	*	*	*group1	*	*	*	*group1	*	*
*part10	*part10	*part10	*part9	*part9	*part9	*part8	*part8	*part7	*part7	*part7	*part6	*	*part5	*part5	*part4	*part4	*	*	*part3	*part3	*	*	*part2	*part2	*	*	*part1	*part1	*part1
*staff10	*	*	*staff9	*	*	*staff8	*	*staff7	*	*	*staff6	*	*staff5	*	*staff4	*staff4	*	*	*staff3	*staff3	*	*	*staff2	*staff2	*	*	*staff1	*staff1	*
*Iempty	*	*	*Iempty	*	*	*Iempty	*	*Iempty	*	*	*Iempty	*	*Iempty	*	*Iempty	*	*	*	*Iempty	*	*	*	*Iempty	*	*	*	*Iempty	*	*
*I"10.	*	*	*I"9.	*	*	*I"8.	*	*I"7.	*	*	*I"6.	*	*I"5.	*	*I"4.	*	*	*	*I"3.	*	*	*	*I"2.	*	*	*	*I"1.	*	*
*mI"Organo et Basso	*	*	*mI"Corni in F	*	*	*mI"Clarinetti in B	*	*mI"Viola	*	*	*mI"Violino II	*	*mI"Violino I	*	*mI"Basso	*	*	*	*mI"Tenore	*	*	*	*mI"Alto	*	*	*	*mI"Soprano	*	*
*I'10.	*	*	*I'9.	*	*	*I'8.	*	*I'7.	*	*	*I'6.	*	*I'5.	*	*I'4.	*	*	*	*I'3.	*	*	*	*I'2.	*	*	*	*I'1.	*	*
*mI'org	*	*	*mI'hn	*	*	*mI'cl	*	*mI'va	*	*	*mI'vn II	*	*mI'vn I	*	*mI'B	*	*	*	*mI'T	*	*	*	*mI'A	*	*	*	*mI'S	*	*
*clefF4	*	*	*clefG2	*	*	*clefG2	*	*clefC3	*	*	*clefG2	*	*clefG2	*	*clefF4	*	*	*	*clefC4	*	*	*	*clefC3	*	*	*	*clefC1	*	*
*	*	*	*	*	*	*	*	*	*	*	*	*	*	*	*	*	*	*	*mclefGv2	*	*	*	*mclefG2	*	*	*	*mclefG2	*	*
*	*	*	*ITrd4c7	*	*	*ITrd1c2	*	*	*	*	*	*	*	*	*	*	*	*	*	*	*	*	*	*	*	*	*	*	*
*k[b-]	*	*	*k[b-]	*	*	*k[b-]	*	*k[b-]	*	*	*k[b-]	*	*k[b-]	*	*k[b-]	*	*	*	*k[b-]	*	*	*	*k[b-]	*	*	*	*k[b-]	*	*
*F:	*	*	*F:	*	*	*F:	*	*F:	*	*	*F:	*	*F:	*	*F:	*	*	*	*F:	*	*	*	*F:	*	*	*	*F:	*	*
*M3/4	*	*	*M3/4	*	*	*M3/4	*	*M3/4	*	*	*M3/4	*	*M3/4	*	*M3/4	*	*	*	*M3/4	*	*	*	*M3/4	*	*	*	*M3/4	*	*
=1	=1	=1	=1	=1	=1	=1	=1	=1	=1	=1	=1	=1	=1	=1	=1	=1	=1	=1	=1	=1	=1	=1	=1	=1	=1	=1	=1	=1	=1
*^	*	*	*	*	*	*	*	*	*	*	*	*	*	*	*	*	*	*	*	*	*	*	*	*	*	*	*	*	*
*	*^	*	*	*	*	*	*	*	*	*	*	*	*	*	*	*	*	*	*	*	*	*	*	*	*	*	*	*	*	*
*2\right	*	*	*	*	*2\right	*	*	*	*	*	*	*	*	*	*	*	*	*	*	*	*	*	*	*	*	*	*	*	*	*	*
!!!OMD:
!!!OMD-mod: Adagio
!	!	!	!	!	!	!	!	!	!	!	!	!	!	!	!	!	!	!	!	!	!	!	!	!	!	!	!	!	!LO:SIC:o=:v:numery porządkowe w miejscu pełnych i skrótowych nazw głosów	!	!
!LO:TX:a:B:t=Adagio:mod=	!	!	!	!	!LO:SIC:o=:v:numery porządkowe w miejscu pełnych i skrótowych nazw głosów	!	!	!LO:SIC:o=:v:numery porządkowe w miejscu pełnych i skrótowych nazw głosów	!LO:DY:a	!LO:SIC:o=:v:numery porządkowe w miejscu pełnych i skrótowych nazw głosów	!	!	!LO:SIC:o=:v:numery porządkowe w miejscu pełnych i skrótowych nazw głosów	!	!LO:SIC:o=:v:numery porządkowe w miejscu pełnych i skrótowych nazw głosów	!	!LO:SIC:o=:v:numery porządkowe w miejscu pełnych i skrótowych nazw głosów	!	!	!	!LO:SIC:o=:v:numery porządkowe w miejscu pełnych i skrótowych nazw głosów	!	!	!	!LO:SIC:o=:v:numery porządkowe w miejscu pełnych i skrótowych nazw głosów	!	!	!	!LO:TX:a:t=Adagio:mod=	!	!
!	!	!	!	!	!	!	!LO:MO:null:mod=!LO&colon;DY&colon;ed=brack	!	!LO:HP:b	!	!	!	!	!	!	!	!	!	!	!	!	!	!	!	!	!	!	!	!	!	!
!	!	!	!	!	!	!	!	!	!	!	!	!	!	!	!	!	!	!	!	!	!	!	!	!	!	!	!	!	!	!	!
2.c/ [2.f/	2.F\ 2.A\	2.rFFF	.	<	2.f\ [2.a\	.	pp<	2.A/ [2.c/	pp <	2.r	.	.	2.r	.	2.r	.	2.r	.	.	.	2.r	.	.	.	2.r	.	.	.	2.r	.	.
=2	=2	=2	=2	=2	=2	=2	=2	=2	=2	=2	=2	=2	=2	=2	=2	=2	=2	=2	=2	=2	=2	=2	=2	=2	=2	=2	=2	=2	=2	=2	=2
!	!	!	!	!	!	!	!	!	!LO:HP:b	!	!	!	!	!	!	!	!	!	!	!	!	!	!	!	!	!	!	!	!	!	!
2c/ 2f/]	2F\ 2A\	2.rFFF	.	[ >	2f\ 2a\]	.	[>	2A/ 2c/]	[>	2.r	.	.	2.r	.	2.r	.	2.r	.	.	.	2.r	.	.	.	2.r	.	.	.	2.r	.	.
4r	4ryy	.	.	]	4r	.	]	4r	]	.	.	.	.	.	.	.	.	.	.	.	.	.	.	.	.	.	.	.	.	.	.
*v	*v	*v	*	*	*	*	*	*	*	*	*	*	*	*	*	*	*	*	*	*	*	*	*	*	*	*	*	*	*	*	*
=3	=3	=3	=3	=3	=3	=3	=3	=3	=3	=3	=3	=3	=3	=3	=3	=3	=3	=3	=3	=3	=3	=3	=3	=3	=3	=3	=3	=3	=3
!	!	!	!	!	!	!	!	!	!	!	!	!	!	!	!	!	!	!	!	!	!	!	!	!	!	!	!LO:TX:a:i:t=dolce	!	!
*	*	*	*	*	*	*	*	*	*	*	*	*	*	*	*2\right	*	*	*	*	*	*	*	*2\right	*	*	*	*	*	*
!	!	!	!	!	!	!	!	!	!	!	!	!	!	!	!LO:MO:null:mod=!LO&colon;TX&colon;a&colon;i&colon;t=dolce	!	!	!	!LO:MO:null:mod=!LO&colon;TX&colon;a&colon;i&colon;t=dolce	!	!	!	!LO:MO:null:mod=!LO&colon;TX&colon;a&colon;i&colon;t=dolce	!	!	!	!	!	!
!	!	!	!	!	!	!	!	!	!	!	!	!	!	!	!	!LO:MO:null:mod=San-	!	!	!	!LO:MO:null:mod=San-	!	!	!	!LO:MO:null:mod=San-	!	!	!	!	!
2.r	.	.	2.r	.	.	2.r	.	2.r	.	.	2.r	.	2.r	.	[2.F\	.	.	.	((4c\	.	.	.	[2.f\	.	.	.	((4a\	San-	.
.	.	.	.	.	.	.	.	.	.	.	.	.	.	.	.	.	.	.	4d\	.	.	.	.	.	.	.	4b-\)	.	.
.	.	.	.	.	.	.	.	.	.	.	.	.	.	.	.	.	.	.	8.B-\L)	.	.	.	.	.	.	.	8.dd\L	.	.
.	.	.	.	.	.	.	.	.	.	.	.	.	.	.	.	.	.	.	16A\Jk	.	.	.	.	.	.	.	16cc\Jk	.	.
=4	=4	=4	=4	=4	=4	=4	=4	=4	=4	=4	=4	=4	=4	=4	=4	=4	=4	=4	=4	=4	=4	=4	=4	=4	=4	=4	=4	=4	=4
*	*	*	*	*	*	*	*	*	*	*	*	*	*	*	*	*	*	*	*2\right	*	*	*	*	*	*	*	*2\right	*	*
!	!	!	!	!	!	!	!	!	!	!	!	!	!	!	!	!LO:MO:null:mod=-ctus	!	!	!	!LO:MO:null:mod=-ctus	!	!	!	!LO:MO:null:mod=-ctus	!	!	!	!	!
2.r	.	.	2.r	.	.	2.r	.	2.r	.	.	2.r	.	2.r	.	2F\]	.	.	.	2A\)	.	.	.	2f\]	.	.	.	2cc\)	-ctus	.
.	.	.	.	.	.	.	.	.	.	.	.	.	.	.	4r	.	.	.	4r	.	.	.	4r	.	.	.	4r	.	.
=5	=5	=5	=5	=5	=5	=5	=5	=5	=5	=5	=5	=5	=5	=5	=5	=5	=5	=5	=5	=5	=5	=5	=5	=5	=5	=5	=5	=5	=5
*^	*	*	*	*	*	*	*	*	*	*	*	*	*	*	*	*	*	*	*	*	*	*	*	*	*	*	*	*	*
!	!	!	!	!	!	!	!	!	!	!	!	!	!	!	!LO:MO:null:mod=!LO&colon;DY&colon;ed=brack	!	!	!	!	!	!	!	!	!	!	!	!	!	!	!
!	!	!	!	!	!	!	!	!	!	!	!LO:MO:null:mod=!LO&colon;DY&colon;ed=brack	!	!	!	!	!	!	!	!	!	!	!	!	!	!	!	!	!	!	!
!	!	!	!	!	!	!	!	!	!	!	!	!	!LO:DY:rj	!	!LO:MO:null:mod=p<[	!	!	!	!	!	!	!	!	!	!	!	!	!	!	!
[2.A/	2.rBB	.	.	2.r	.	.	2.r	.	[2.A/	.	pp<[	[2.A/	pp<[	2.A/	.	2.r	.	.	.	2.r	.	.	.	2.r	.	.	.	2.r	.	.
=6	=6	=6	=6	=6	=6	=6	=6	=6	=6	=6	=6	=6	=6	=6	=6	=6	=6	=6	=6	=6	=6	=6	=6	=6	=6	=6	=6	=6	=6	=6
!	!	!	!	!	!	!	!	!	!	!	!LO:MO:null:mod=>	!	!	!	!LO:MO:null:mod=>	!	!	!	!	!	!	!	!	!	!	!	!	!	!	!
2A/]	2.rBB	.	.	2.r	.	.	2.r	.	2A/]	.	.	2A/]	>	2A/	.	2.r	.	.	.	2.r	.	.	.	2.r	.	.	.	2.r	.	.
!LO:N:vis=2	!	!	!	!	!	!	!	!	!	!	!LO:MO:null:mod=]	!	!	!	!LO:MO:null:mod=]	!	!	!	!	!	!	!	!	!	!	!	!	!	!	!
4rA	.	.	.	.	.	.	.	.	4r	.	.	4r	]	4r	.	.	.	.	.	.	.	.	.	.	.	.	.	.	.	.
*v	*v	*	*	*	*	*	*	*	*	*	*	*	*	*	*	*	*	*	*	*	*	*	*	*	*	*	*	*	*	*
=7	=7	=7	=7	=7	=7	=7	=7	=7	=7	=7	=7	=7	=7	=7	=7	=7	=7	=7	=7	=7	=7	=7	=7	=7	=7	=7	=7	=7	=7
!	!	!	!	!	!	!	!	!	!	!	!	!	!	!	!LO:MO:mod=(2E	!LO:MO:null:mod=San-	!	!	!LO:MO:mod=(2e	!LO:MO:null:mod=San-	!	!	!LO:MO:mod=(2a	!LO:MO:null:mod=San-	!	!	!LO:SIC:o=:v:niejednoznaczny zapis łuku	!	!
2.r	.	.	2.r	.	.	2.r	.	2.r	.	.	2.r	.	2.r	.	2E\	.	.	.	2e\	.	.	.	2a\	.	.	.	(2cc#X\	San-	.
!	!	!	!	!	!	!	!	!	!	!	!	!	!	!	!	!	!	!	!	!	!	!	!	!	!	!	!LO:SIC:s=8.bnL	!	!
.	.	.	.	.	.	.	.	.	.	.	.	.	.	.	8.E\L	.	.	.	8.d\L	.	.	.	8.g#X\L	.	.	.	8.b-\L	.	.
.	.	.	.	.	.	.	.	.	.	.	.	.	.	.	16F#X\Jk	.	.	.	16cn\Jk	.	.	.	16a\Jk	.	.	.	16a\Jk)	.	.
=8	=8	=8	=8	=8	=8	=8	=8	=8	=8	=8	=8	=8	=8	=8	=8	=8	=8	=8	=8	=8	=8	=8	=8	=8	=8	=8	=8	=8	=8
!!LO:PB:g=original
*^	*	*	*	*	*	*	*	*	*	*	*	*	*	*	*	*	*	*	*	*	*	*	*	*	*	*	*	*	*
!LO:TX:a:t=Violo&colon;	!	!	!	!	!	!	!	!	!	!	!	!	!	!	!	!LO:MO:mod=2F#)	!LO:MO:null:mod=-ctus	!	!	!LO:MO:mod=2c)	!LO:MO:null:mod=-ctus	!	!	!LO:MO:mod=2d#)	!LO:MO:null:mod=-ctus	!	!	!	!	!
8.r	2.r	.	.	8.r	.	.	2.r	.	8.r	.	.	2.r	.	2.r	.	2F#X\	.	.	.	2c\	.	.	.	2d#X\	.	.	.	2a\	-ctus	.
16c/	.	.	.	16c/	.	.	.	.	16c\	.	.	.	.	.	.	.	.	.	.	.	.	.	.	.	.	.	.	.	.	.
8.c/L	.	.	.	8.c/L	.	.	.	.	8.c\L	.	.	.	.	.	.	.	.	.	.	.	.	.	.	.	.	.	.	.	.	.
16c/K	.	.	.	16c/K	.	.	.	.	16c\K	.	.	.	.	.	.	.	.	.	.	.	.	.	.	.	.	.	.	.	.	.
8.c/	.	.	.	8.c/	.	.	.	.	8.c\	.	.	.	.	.	.	4r	.	.	.	4r	.	.	.	4r	.	.	.	4r	.	.
16c/Jk	.	.	.	16c/Jk	.	.	.	.	16c\Jk	.	.	.	.	.	.	.	.	.	.	.	.	.	.	.	.	.	.	.	.	.
=9	=9	=9	=9	=9	=9	=9	=9	=9	=9	=9	=9	=9	=9	=9	=9	=9	=9	=9	=9	=9	=9	=9	=9	=9	=9	=9	=9	=9	=9	=9
!	!	!	!	!	!	!	!	!	!LO:MO:null:mod=!LO&colon;TX&colon;a&colon;t=pizzicato	!	!	!LO:MO:null:mod=!LO&colon;TX&colon;a&colon;t=pizzicato	!	!	!	!	!	!	!	!	!	!	!	!	!	!	!	!	!	!
!LO:TX:b:t=pizz&colon;	!	!	!	!	!	!	!	!	!	!	!	!	!	!LO:TX:a:t=pizzicato	!	!	!LO:MO:null:mod=San-	!	!	!	!LO:MO:null:mod=San-	!	!	!	!LO:MO:null:mod=San-	!	!	!	!LO:MO:mod=San-	!
4c/	4G\	.	.	4c/	.	.	2.r	.	4c\	.	.	4c/	.	4G/ 4e/	.	2G\	.	.	.	2.c\	.	.	.	2e\	.	.	.	2g\	san-	.
4r	4ryy	.	.	4r	.	.	.	.	4r	.	.	4r	.	4r	.	.	.	.	.	.	.	.	.	.	.	.	.	.	.	.
!	!	!	!	!	!	!	!	!	!	!	!	!	!	!	!	!LO:MO:mod=(8.AL	!	!	!	!	!	!	!	!LO:MO:mod=(8.d#L	!	!	!	!	!	!
4r	4ryy	.	.	4r	.	.	.	.	4r	.	.	4r	.	4r	.	8.A\L	.	.	.	.	.	.	.	8.d#X\L	.	.	.	(8.f#X\L	.	.
.	.	.	.	.	.	.	.	.	.	.	.	.	.	.	.	16G\Jk	.	.	.	.	.	.	.	16e\Jk	.	.	.	16g\Jk	.	.
=10	=10	=10	=10	=10	=10	=10	=10	=10	=10	=10	=10	=10	=10	=10	=10	=10	=10	=10	=10	=10	=10	=10	=10	=10	=10	=10	=10	=10	=10	=10
!	!	!	!	!	!	!	!	!	!	!	!	!LO:MO:null:mod=!LO&colon;TX&colon;a&colon;t=pizz&colon;	!	!LO:MO:null:mod=!LO&colon;TX&colon;a&colon;t=pizz&colon;	!	!	!	!	!	!	!	!	!	!	!	!	!	!	!	!
!	!	!	!	!	!	!	!	!	!LO:TX:a:t=pizz&colon;	!	!	!	!	!	!	!	!	!	!	!LO:MO:mod=(2Bn	!	!	!	!	!	!	!	!	!	!
4G/	4G\	.	.	2.r	.	.	2.r	.	4G/	.	.	4Bn/ 4d/	.	4G/ 4f/	.	2.G\	.	.	.	2Bn\	.	.	.	2f\	.	.	.	2g\	.	.
4r	4ryy	.	.	.	.	.	.	.	4r	.	.	4r	.	4r	.	.	.	.	.	.	.	.	.	.	.	.	.	.	.	.
4r	4ryy	.	.	.	.	.	.	.	4r	.	.	4r	.	4r	.	.	.	.	.	8.d\L	.	.	.	8.f\L	.	.	.	8.bn\L	.	.
!	!	!	!	!	!	!	!	!	!	!	!	!	!	!	!	!	!	!	!	!	!	!	!	!	!	!	!	!	!	!
.	.	.	.	.	.	.	.	.	.	.	.	.	.	.	.	.	.	.	.	16c\Jk	.	.	.	16e\Jk	.	.	.	16cc\Jk)	.	.
*v	*v	*	*	*	*	*	*	*	*	*	*	*	*	*	*	*	*	*	*	*	*	*	*	*	*	*	*	*	*	*
=11	=11	=11	=11	=11	=11	=11	=11	=11	=11	=11	=11	=11	=11	=11	=11	=11	=11	=11	=11	=11	=11	=11	=11	=11	=11	=11	=11	=11	=11
!	!	!	!	!	!	!	!	!	!	!	!	!	!	!	!LO:MO:mod=2C)	!LO:MO:null:mod=-ctus	!	!	!LO:MO:mod=2c)	!LO:MO:null:mod=-ctus	!	!	!LO:MO:mod=2e)	!LO:MO:null:mod=-ctus	!	!	!	!	!
4r	.	.	2.r	.	.	2.r	.	4r	.	.	4r	.	4r	.	2C/	.	.	.	2c\	.	.	.	2e\	.	.	.	2cc\	-ctus	.
4C/	.	.	.	.	.	.	.	4E/ 4G/	.	.	4c/	.	4G/ 4e/	.	.	.	.	.	.	.	.	.	.	.	.	.	.	.	.
4C/	.	.	.	.	.	.	.	4E/ 4G/	.	.	4c/	.	4G/ 4e/	.	4r	.	.	.	4r	.	.	.	4r	.	.	.	4r	.	.
=12	=12	=12	=12	=12	=12	=12	=12	=12	=12	=12	=12	=12	=12	=12	=12	=12	=12	=12	=12	=12	=12	=12	=12	=12	=12	=12	=12	=12	=12
!	!	!	!	!	!	!	!	!	!	!	!	!	!	!	!	!	!	!LO:MO:null:mod=!LO&colon;DY&colon;ed=brack	!	!	!	!LO:MO:null:mod=!LO&colon;DY&colon;ed=brack	!	!	!	!LO:MO:null:mod=!LO&colon;DY&colon;ed=brack	!	!	!
!	!	!	!	!	!	!	!	!	!	!	!	!	!	!	!	!LO:MO:null:mod=Do-	!	!	!	!LO:MO:null:mod=Do-	!	!	!	!LO:MO:null:mod=Do-	!	!	!	!	!LO:DY:a
4C/	.	.	2.r	.	.	2.r	.	4E/ 4G/	.	.	4c/	.	4G/ 4e/	.	4.C/	.	.	f	4.c\	.	.	f	4.g\	.	.	f	4.ee\	Do-	f
4r	.	.	.	.	.	.	.	4r	.	.	4r	.	4r	.	.	.	.	.	.	.	.	.	.	.	.	.	.	.	.
!	!	!	!	!	!	!	!	!	!	!	!	!	!	!	!	!LO:MO:null:mod=-mi-	!	!	!	!LO:MO:null:mod=-mi-	!	!	!	!LO:MO:null:mod=-mi-	!	!	!	!	!
.	.	.	.	.	.	.	.	.	.	.	.	.	.	.	8C/	.	.	.	8c\	.	.	.	8g\	.	.	.	8ee\	-mi-	.
!	!	!	!	!	!	!	!	!	!	!	!	!	!	!	!	!LO:MO:null:mod=-nus	!	!	!	!LO:MO:null:mod=-nus	!	!	!	!LO:MO:null:mod=-nus	!	!	!	!	!
4r	.	.	.	.	.	.	.	4r	.	.	4r	.	4r	.	4BB-X/	.	.	.	4c\	.	.	.	4g\	.	.	.	4ee\	-nus	.
=13	=13	=13	=13	=13	=13	=13	=13	=13	=13	=13	=13	=13	=13	=13	=13	=13	=13	=13	=13	=13	=13	=13	=13	=13	=13	=13	=13	=13	=13
!	!	!	!	!	!	!	!	!	!	!	!	!	!	!	!	!LO:MO:null:mod=De-	!	!	!	!LO:MO:null:mod=De-	!	!	!	!LO:MO:null:mod=De-	!	!	!	!	!
4r	.	.	2.r	.	.	2.r	.	4r	.	.	4r	.	4r	.	4AA/	.	.	.	4c\	.	.	.	4f\	.	.	.	4ff\	De-	.
!	!	!	!	!	!	!	!	!	!	!	!	!	!	!	!	!LO:MO:null:mod=-us	!	!	!	!LO:MO:null:mod=-us	!	!	!	!LO:MO:null:mod=-us	!	!	!	!	!
4AA/	.	.	.	.	.	.	.	4F/	.	.	4c/	.	4A/ 4f/	.	4AA/	.	.	.	4c\	.	.	.	4f\	.	.	.	4ff\	-us	.
4AA/	.	.	.	.	.	.	.	4F/	.	.	4c/	.	4A/ 4f/	.	4r	.	.	.	4r	.	.	.	4r	.	.	.	4r	.	.
=14	=14	=14	=14	=14	=14	=14	=14	=14	=14	=14	=14	=14	=14	=14	=14	=14	=14	=14	=14	=14	=14	=14	=14	=14	=14	=14	=14	=14	=14
!	!	!	!	!	!	!	!	!	!	!	!	!	!	!	!	!LO:MO:null:mod=De-	!	!	!	!LO:MO:null:mod=De-	!	!	!	!LO:MO:null:mod=De-	!	!	!	!	!
4AA/	.	.	2.r	.	.	2.r	.	4F/	.	.	4c/	.	4A/ 4f/	.	2A\	.	.	.	2c\	.	.	.	2f\	.	.	.	2ff\	De-	.
4r	.	.	.	.	.	.	.	4r	.	.	4r	.	4r	.	.	.	.	.	.	.	.	.	.	.	.	.	.	.	.
!	!	!	!	!	!	!	!	!	!	!	!	!	!	!	!	!LO:MO:null:mod=-us	!	!	!	!LO:MO:null:mod=-us	!	!	!	!LO:MO:null:mod=-us	!	!	!	!	!
4r	.	.	.	.	.	.	.	4r	.	.	4r	.	4r	.	4A-X\	.	.	.	4d\	.	.	.	4bn\	.	.	.	4ff\	-us	.
=15	=15	=15	=15	=15	=15	=15	=15	=15	=15	=15	=15	=15	=15	=15	=15	=15	=15	=15	=15	=15	=15	=15	=15	=15	=15	=15	=15	=15	=15
!LO:PB:g=original	!	!	!	!	!	!	!	!	!	!	!	!	!	!	!	!LO:MO:null:mod=Sa-	!	!	!	!LO:MO:null:mod=Sa-	!	!	!	!LO:MO:null:mod=Sa-	!	!	!	!	!
4GG/	.	.	2.r	.	.	2.r	.	4G/	.	.	4G/	.	4c/ 4e/	.	2G\	.	.	.	2e\	.	.	.	2cc\	.	.	.	2ee\	Sa-	.
4r	.	.	.	.	.	.	.	4r	.	.	4r	.	4r	.	.	.	.	.	.	.	.	.	.	.	.	.	.	.	.
!	!	!	!	!	!	!	!	!	!	!	!	!	!	!	!	!LO:MO:null:mod=-ba-	!	!	!	!LO:MO:null:mod=-ba-	!	!	!	!LO:MO:null:mod=-ba-	!	!	!	!	!
4GG/	.	.	.	.	.	.	.	4G/	.	.	4Bn/ 4d/	.	4G/ 4f/	.	4G\	.	.	.	8.f\L	.	.	.	8.bn\L	.	.	.	8.dd\L	-ba-	.
.	.	.	.	.	.	.	.	.	.	.	.	.	.	.	.	.	.	.	16e\Jk	.	.	.	16cc\Jk	.	.	.	16cc\Jk	.	.
=16	=16	=16	=16	=16	=16	=16	=16	=16	=16	=16	=16	=16	=16	=16	=16	=16	=16	=16	=16	=16	=16	=16	=16	=16	=16	=16	=16	=16	=16
*^	*	*	*	*	*	*	*	*	*	*	*	*	*	*	*	*	*	*	*	*	*	*	*	*	*	*	*	*	*
!	!	!	!	!	!	!	!	!LO:DY:a	!	!	!	!	!	!	!	!	!	!	!	!	!	!	!	!	!	!	!	!	!	!
!LO:TX:a:rj:t=Organ	!	!	!	!	!	!	!	!LO:DY:a	!	!	!	!	!	!	!	!	!LO:MO:null:mod=-oth	!	!	!	!LO:MO:null:mod=-oth	!	!	!	!LO:MO:null:mod=-oth	!	!	!	!	!
[<2.C/ 2.G/ 2.c/ [2.e/	4C\	.	.	2.c\ 2.g\	.	.	2.c/ [2.e/	p <	4C/	.	.	4c/	.	4G/ 4e/	.	2C/	.	.	.	2e\	.	.	.	2cc\	.	.	.	2cc\	-oth	.
.	4r	.	pp	.	.	.	.	.	4r	.	.	4r	.	4r	.	.	.	.	.	.	.	.	.	.	.	.	.	.	.	.
!	!	!	!	!	!	!	!	!LO:DY:a	!	!	!	!	!	!	!	!	!	!	!	!	!	!	!	!	!	!	!	!	!	!
.	.	.	.	.	.	.	.	[ >	.	.	.	.	.	.	.	.	.	.	.	.	.	.	.	.	.	.	.	.	.	.
.	4r	.	.	.	.	.	.	]	4r	.	.	4r	.	4r	.	4r	.	.	.	4r	.	.	.	4r	.	.	.	4r	.	.
=17	=17	=17	=17	=17	=17	=17	=17	=17	=17	=17	=17	=17	=17	=17	=17	=17	=17	=17	=17	=17	=17	=17	=17	=17	=17	=17	=17	=17	=17	=17
2.C/] 2.G/ 2.c/ 2.e/]	2.rGG	.	.	2.c\ 2.g\	.	.	2.c/ 2.e/]	.	2.r	.	.	2.r	.	2.r	.	2.r	.	.	.	2.r	.	.	.	2.r	.	.	.	2.r	.	.
=18||	=18||	=18||	=18||	=18||	=18||	=18||	=18||	=18||	=18||	=18||	=18||	=18||	=18||	=18||	=18||	=18||	=18||	=18||	=18||	=18||	=18||	=18||	=18||	=18||	=18||	=18||	=18||	=18||	=18||	=18||
!!!OMD:
!!!OMD-mod: Allegro
!LO:TX:b:t=Allegro:mod=	!	!	!	!	!	!	!	!	!	!	!	!	!	!LO:TX:a:t=Col arco	!	!	!	!	!	!	!	!	!	!	!	!	!	!LO:TX:a:t=Allegro:mod=	!	!
*	*	*	*	*	*	*	*	*	*tremolo	*	*	*tremolo	*	*	*	*	*	*	*	*	*	*	*	*	*	*	*	*	*	*
!	!	!	!	!	!	!	!	!	!LO:MO:null:mod=!LO&colon;TX&colon;a&colon;t=Col arco	!	!	!LO:MO:null:mod=!LO&colon;TX&colon;a&colon;t=Col arco	!	!	!	!	!	!	!	!	!	!	!	!	!	!	!	!	!	!
!	!	!	!	!	!	!	!	!	!	!	!	!	!	!	!	!	!	!	!	!	!	!	!	!	!LO:MO:mod=Ple-	!	!	!	!	!
4C/ 4G/ 4c/ 4e/	4rBB	.	.	4c\ 4g\	.	.	4c/ 4e/	.	8c\L	.	.	16c/LL	.	4r	.	4r	.	.	.	[2.c\	Ple-	.	.	[2.cc\	ple-	.	.	4r	.	.
.	.	.	.	.	.	.	.	.	.	.	.	16c/	.	.	.	.	.	.	.	.	.	.	.	.	.	.	.	.	.	.
.	.	.	.	.	.	.	.	.	8c\	.	.	16c/	.	.	.	.	.	.	.	.	.	.	.	.	.	.	.	.	.	.
.	.	.	.	.	.	.	.	.	.	.	.	16c/	.	.	.	.	.	.	.	.	.	.	.	.	.	.	.	.	.	.
2ryy	8r	.	.	4r	.	.	4r	.	8c\	.	.	16c/	.	8r	.	8r	.	.	.	.	.	.	.	.	.	.	.	8r	.	.
.	.	.	.	.	.	.	.	.	.	.	.	16c/	.	.	.	.	.	.	.	.	.	.	.	.	.	.	.	.	.	.
.	8E\L	6	.	.	.	.	.	.	8c\	.	.	16c/	.	8cc\L	.	8E\	Ple-	.	.	.	.	.	.	.	.	.	.	8cc\	Ple-	.
.	.	.	.	.	.	.	.	.	.	.	.	16c/	.	.	.	.	.	.	.	.	.	.	.	.	.	.	.	.	.	.
.	8F\	6	.	4r	.	.	4r	.	8c\	.	.	16c/	.	8dd\	.	8F\	-ni	.	.	.	.	.	.	.	.	.	.	8dd\	-ni	.
.	.	.	.	.	.	.	.	.	.	.	.	16c/	.	.	.	.	.	.	.	.	.	.	.	.	.	.	.	.	.	.
.	8G\J	6	.	.	.	.	.	.	8c\J	.	.	16c/	.	8ee\J	.	8G\	sunt	.	.	.	.	.	.	.	.	.	.	8ee\	sunt	.
.	.	.	.	.	.	.	.	.	.	.	.	16c/JJ	.	.	.	.	.	.	.	.	.	.	.	.	.	.	.	.	.	.
*v	*v	*	*	*	*	*	*	*	*	*	*	*	*	*	*	*	*	*	*	*	*	*	*	*	*	*	*	*	*	*
=19	=19	=19	=19	=19	=19	=19	=19	=19	=19	=19	=19	=19	=19	=19	=19	=19	=19	=19	=19	=19	=19	=19	=19	=19	=19	=19	=19	=19	=19
*	*	*	*	*	*	*^	*	*	*	*	*	*	*	*	*	*	*	*	*	*	*	*	*	*	*	*	*	*	*
*	*	*	*	*	*	*	*2\right	*	*rep	*	*	*rep	*	*	*	*	*	*	*	*	*	*	*	*	*	*	*	*	*	*
4A^<\	6	.	[>2.c/	.	.	4r	[2.c\	.	8c\L	.	.	16c/LL	.	8.ff\L	.	4A\	coe-	.	.	4c\]	.	.	.	4cc\]	.	.	.	4ff\	coe-	.
.	.	.	.	.	.	.	.	.	.	.	.	16c/	.	.	.	.	.	.	.	.	.	.	.	.	.	.	.	.	.	.
.	.	.	.	.	.	.	.	.	8c\	.	.	16c/	.	.	.	.	.	.	.	.	.	.	.	.	.	.	.	.	.	.
.	.	.	.	.	.	.	.	.	.	.	.	16c/	.	32gg\LL	.	.	.	.	.	.	.	.	.	.	.	.	.	.	.	.
.	.	.	.	.	.	.	.	.	.	.	.	.	.	32ff\JJJ	.	.	.	.	.	.	.	.	.	.	.	.	.	.	.	.
8G\	6	.	.	.	.	8r	.	.	8c\	.	.	16c/	.	8ee\L	.	8G\	-li	.	.	4c\	-ni	.	.	4cc\	-ni	.	.	8ee\	-li	.
.	.	.	.	.	.	.	.	.	.	.	.	16c/	.	.	.	.	.	.	.	.	.	.	.	.	.	.	.	.	.	.
8E\L	6	.	.	.	.	8cc\L	.	.	8c\	.	.	16c/	.	8cc\	.	8E\	coe-	.	.	.	.	.	.	.	.	.	.	8cc\	coe-	.
.	.	.	.	.	.	.	.	.	.	.	.	16c/	.	.	.	.	.	.	.	.	.	.	.	.	.	.	.	.	.	.
8F\	6	.	.	.	.	8dd\	.	.	8c\	.	.	16c/	.	8dd\	.	8F\	-li	.	.	4c\	sunt	.	.	4cc\	sunt	.	.	8dd\	-li	.
.	.	.	.	.	.	.	.	.	.	.	.	16c/	.	.	.	.	.	.	.	.	.	.	.	.	.	.	.	.	.	.
8G\J	6	.	.	.	.	8ee\J	.	.	8c\J	.	.	16c/	.	8ee\J	.	8G\	et	.	.	.	.	.	.	.	.	.	.	8ee\	et	.
.	.	.	.	.	.	.	.	.	.	.	.	16c/JJ	.	.	.	.	.	.	.	.	.	.	.	.	.	.	.	.	.	.
*	*	*	*	*	*	*	*	*	*Xrep	*	*	*Xrep	*	*	*	*	*	*	*	*	*	*	*	*	*	*	*	*	*	*
=20	=20	=20	=20	=20	=20	=20	=20	=20	=20	=20	=20	=20	=20	=20	=20	=20	=20	=20	=20	=20	=20	=20	=20	=20	=20	=20	=20	=20	=20	=20
*	*	*	*	*	*	*	*	*	*rep	*	*	*rep	*	*	*	*	*	*	*	*	*	*	*	*	*	*	*	*	*	*
(4A\	6	.	2.c/]	.	.	4ff/	(2.c\]	.	8c\L	.	.	16c/LL	.	8.ff\L	.	4A\	ter-	.	.	4c\	coe-	.	.	4cc\	coe-	.	.	4ff\	ter-	.
.	.	.	.	.	.	.	.	.	.	.	.	16c/	.	.	.	.	.	.	.	.	.	.	.	.	.	.	.	.	.	.
.	.	.	.	.	.	.	.	.	8c\	.	.	16c/	.	.	.	.	.	.	.	.	.	.	.	.	.	.	.	.	.	.
.	.	.	.	.	.	.	.	.	.	.	.	16c/	.	32gg\LL	.	.	.	.	.	.	.	.	.	.	.	.	.	.	.	.
.	.	.	.	.	.	.	.	.	.	.	.	.	.	32ff\JJJ	.	.	.	.	.	.	.	.	.	.	.	.	.	.	.	.
8G\L)	6	.	.	.	.	8ee/	.	.	8c\	.	.	16c/	.	8ee\L	.	8G\	-ra	.	.	4c\	-li	.	.	4cc\	-li	.	.	8ee\	-ra	.
.	.	.	.	.	.	.	.	.	.	.	.	16c/	.	.	.	.	.	.	.	.	.	.	.	.	.	.	.	.	.	.
8F#X'\	6	.	.	.	.	8dd#X/L	.	.	8c\	.	.	16c/	.	16dd#X\L	.	8F#X\	coe-	.	.	.	.	.	.	.	.	.	.	8dd#X\	coe-	.
.	.	.	.	.	.	.	.	.	.	.	.	16c/	.	16dd#\JJ	.	.	.	.	.	.	.	.	.	.	.	.	.	.	.	.
8G'\	6	.	.	.	.	8ee/	.	.	8c\	.	.	16c/	.	16ee\LL	.	8G\	-li	.	.	4c\	et	.	.	4cc\	et	.	.	8ee\	-li	.
.	.	.	.	.	.	.	.	.	.	.	.	16c/	.	16ee\	.	.	.	.	.	.	.	.	.	.	.	.	.	.	.	.
8A'\J	6	.	.	.	.	8ff/J	.	.	8c\J	.	.	16c/	.	16ff\	.	8A\	et	.	.	.	.	.	.	.	.	.	.	8ff\	et	.
.	.	.	.	.	.	.	.	.	.	.	.	16c/JJ	.	16ff\JJ	.	.	.	.	.	.	.	.	.	.	.	.	.	.	.	.
*	*	*	*	*	*	*	*	*	*Xrep	*	*	*Xrep	*	*	*	*	*	*	*	*	*	*	*	*	*	*	*	*	*	*
=21	=21	=21	=21	=21	=21	=21	=21	=21	=21	=21	=21	=21	=21	=21	=21	=21	=21	=21	=21	=21	=21	=21	=21	=21	=21	=21	=21	=21	=21	=21
*tremolo	*	*	*	*	*	*	*	*	*	*	*	*	*	*	*	*	*	*	*	*	*	*	*	*	*	*	*	*	*	*
8B-\L	2	.	8c/L	.	.	2.ee/	2.g\)	.	16B-\LL 16c\	.	.	16c/LL 16g/	.	(8gg\L	.	2B-\	ter-	.	.	2c\	ter-	.	.	2g\	ter-	.	.	2ee\	ter-	.
.	.	.	.	.	.	.	.	.	16B-\ 16c\	.	.	16c/ 16g/	.	.	.	.	.	.	.	.	.	.	.	.	.	.	.	.	.	.
!	!	!	!	!	!	!	!	!	!	!	!	!	!	!LO:MO:mod=!null:null	!	!	!	!	!	!	!	!	!	!	!	!	!	!	!	!
!	!	!	!	!	!	!	!	!	!	!	!	!	!	!LO:N:vis=8	!	!	!	!	!	!	!	!	!	!	!	!	!	!	!	!
8B-\	.	.	16c/L	.	.	.	.	.	16B-\ 16c\	.	.	16c/ 16g/	.	4ccc\J	.	.	.	.	.	.	.	.	.	.	.	.	.	.	.	.
.	.	.	16c/JJ	.	.	.	.	.	16B-\ 16c\	.	.	16c/ 16g/	.	.	.	.	.	.	.	.	.	.	.	.	.	.	.	.	.	.
8B-\	.	.	8c/L	.	.	.	.	.	16B-\ 16c\	.	.	16c/ 16g/	.	.	.	.	.	.	.	.	.	.	.	.	.	.	.	.	.	.
.	.	.	.	.	.	.	.	.	16B-\ 16c\	.	.	16c/ 16g/	.	.	.	.	.	.	.	.	.	.	.	.	.	.	.	.	.	.
8B-\	.	.	8c/	.	.	.	.	.	16B-\ 16c\	.	.	16c/ 16g/	.	4gg\	.	.	.	.	.	.	.	.	.	.	.	.	.	.	.	.
.	.	.	.	.	.	.	.	.	16B-\ 16c\	.	.	16c/ 16g/	.	.	.	.	.	.	.	.	.	.	.	.	.	.	.	.	.	.
8B-\	.	.	8c/	.	.	.	.	.	16B-\ 16c\	.	.	16c/ 16g/	.	.	.	4B-\	-ra	.	.	4c\	-ra	.	.	4g\	-ra	.	.	4ee\	-ra	.
.	.	.	.	.	.	.	.	.	16B-\ 16c\	.	.	16c/ 16g/	.	.	.	.	.	.	.	.	.	.	.	.	.	.	.	.	.	.
8B-\J	.	.	8c/J	.	.	.	.	.	16B-\ 16c\	.	.	16c/ 16g/	.	8ee\)	.	.	.	.	.	.	.	.	.	.	.	.	.	.	.	.
.	.	.	.	.	.	.	.	.	16B-\JJ 16c\	.	.	16c/JJ 16g/	.	.	.	.	.	.	.	.	.	.	.	.	.	.	.	.	.	.
=22	=22	=22	=22	=22	=22	=22	=22	=22	=22	=22	=22	=22	=22	=22	=22	=22	=22	=22	=22	=22	=22	=22	=22	=22	=22	=22	=22	=22	=22	=22
!LO:PB:g=original	!	!	!	!	!	!	!	!	!	!	!	!	!	!	!	!	!	!	!	!	!	!	!	!	!	!	!	!	!	!
!	!	!	!	!	!	!	!	!	!	!	!	!	!	!	!	!	!LO:MO:null:mod=glo-	!	!	!	!LO:MO:null:mod=glo-	!	!	!	!LO:MO:null:mod=glo-	!	!	!	!	!
8A\L	6	.	2.F/ 2.f/	.	.	2ff/	2f\	.	16A/LL	.	.	16A/LL 16f/	.	8.ff\L	.	4.A\	.	.	.	4.c\	.	.	.	4.f\	.	.	.	4.ff\	glo-	.
.	.	.	.	.	.	.	.	.	16A/	.	.	16f/ 16cc/	.	.	.	.	.	.	.	.	.	.	.	.	.	.	.	.	.	.
8A\	.	.	.	.	.	.	.	.	16A/	.	.	16f/ 16cc/	.	.	.	.	.	.	.	.	.	.	.	.	.	.	.	.	.	.
.	.	.	.	.	.	.	.	.	16A/	.	.	16f/JJ 16cc/	.	16ccc\Jk	.	.	.	.	.	.	.	.	.	.	.	.	.	.	.	.
8A\	.	.	.	.	.	.	.	.	16A/	.	.	16f/LL 16cc/	.	16ccc\LL	.	.	.	.	.	.	.	.	.	.	.	.	.	.	.	.
.	.	.	.	.	.	.	.	.	16A/	.	.	16f/ 16cc/	.	16bb-\	.	.	.	.	.	.	.	.	.	.	.	.	.	.	.	.
!	!	!	!	!	!	!	!	!	!	!	!	!	!	!	!	!	!LO:MO:null:mod=-ri-	!	!	!	!LO:MO:null:mod=-ri-	!	!	!	!LO:MO:null:mod=-ri-	!	!	!	!	!
8A\	.	.	.	.	.	.	.	.	16A/	.	.	16f/ 16cc/	.	16aa\	.	8A\	.	.	.	8c\	.	.	.	8f\	.	.	.	8ff\	-ri-	.
.	.	.	.	.	.	.	.	.	16A/	.	.	16f/ 16cc/	.	16gg\JJ	.	.	.	.	.	.	.	.	.	.	.	.	.	.	.	.
!	!	!	!	!	!	!LO:SIC:s=4ff	!	!	!	!	!	!	!	!	!	!	!LO:MO:null:mod=-a	!	!	!	!LO:MO:null:mod=-a	!	!	!	!LO:MO:null:mod=-a	!	!	!	!	!
8A\	.	.	.	.	.	4ee--X/	4cc\	.	16A/	.	.	16f/ 16cc/	.	16ff\LL	.	4A\	.	.	.	4c\	.	.	.	4f\	.	.	.	4ee-X\	-a	.
.	.	.	.	.	.	.	.	.	16A/	.	.	16f/ 16cc/	.	16ee-X\	.	.	.	.	.	.	.	.	.	.	.	.	.	.	.	.
8A\J	.	.	.	.	.	.	.	.	16A/	.	.	16f/ 16cc/	.	16dd\	.	.	.	.	.	.	.	.	.	.	.	.	.	.	.	.
.	.	.	.	.	.	.	.	.	16A/JJ	.	.	16f/JJ 16cc/	.	16ee-\JJ	.	.	.	.	.	.	.	.	.	.	.	.	.	.	.	.
=23	=23	=23	=23	=23	=23	=23	=23	=23	=23	=23	=23	=23	=23	=23	=23	=23	=23	=23	=23	=23	=23	=23	=23	=23	=23	=23	=23	=23	=23	=23
*	*	*	*	*	*	*	*	*	*	*	*	*2\right	*	*	*	*	*	*	*	*	*	*	*	*	*	*	*	*	*	*
!	!	!	!	!	!	!	!	!	!	!	!	!	!	!	!	!	!LO:MO:null:mod=glo-	!	!	!	!LO:MO:null:mod=glo-	!	!	!	!LO:MO:null:mod=glo-	!	!	!	!	!
8B-\L	.	.	2.F/ 2.f/	.	.	2dd/	2b-\	.	16B-/LL	.	.	16f\LL 16dd\	.	8.dd\L	.	4.B-\	.	.	.	4.c\	.	.	.	4.f\	.	.	.	4.dd\	glo-	.
.	.	.	.	.	.	.	.	.	16B-/	.	.	16f\ 16dd\	.	.	.	.	.	.	.	.	.	.	.	.	.	.	.	.	.	.
8B-\	.	.	.	.	.	.	.	.	16B-/	.	.	16f\ 16dd\	.	.	.	.	.	.	.	.	.	.	.	.	.	.	.	.	.	.
.	.	.	.	.	.	.	.	.	16B-/	.	.	16f\ 16dd\	.	16ddd\Jk	.	.	.	.	.	.	.	.	.	.	.	.	.	.	.	.
8B-\	.	.	.	.	.	.	.	.	16B-/	.	.	16f\ 16dd\	.	16ddd\LL	.	.	.	.	.	.	.	.	.	.	.	.	.	.	.	.
.	.	.	.	.	.	.	.	.	16B-/	.	.	16f\ 16dd\	.	16ccc\	.	.	.	.	.	.	.	.	.	.	.	.	.	.	.	.
!	!	!	!	!	!	!	!	!	!	!	!	!	!	!	!	!	!LO:MO:null:mod=-ri-	!	!	!	!LO:MO:null:mod=-ri-	!	!	!	!LO:MO:null:mod=-ri-	!	!	!	!	!
8B-\J	.	.	.	.	.	.	.	.	16B-/	.	.	16f\ 16dd\	.	16bb-\	.	8B-\	.	.	.	8c\	.	.	.	8f\	.	.	.	8dd\	-ri-	.
.	.	.	.	.	.	.	.	.	16B-/JJ	.	.	16f\JJ 16dd\	.	16aa\JJ	.	.	.	.	.	.	.	.	.	.	.	.	.	.	.	.
*Xtremolo	*	*	*	*	*	*	*	*	*	*	*	*	*	*	*	*	*	*	*	*	*	*	*	*	*	*	*	*	*	*
!	!	!	!	!	!	!	!	!	!	!	!	!	!	!	!	!	!LO:MO:null:mod=-a	!	!	!	!LO:MO:null:mod=-a	!	!	!	!LO:MO:null:mod=-a	!	!	!	!	!
8Bn\L	6 5	.	.	.	.	4ff/	4dd\	.	16Bn/LL	.	.	16g\LL 16dd\	.	16gg\LL	.	4Bn\	.	.	.	4d\	.	.	.	4g\	.	.	.	4ff\	-a	.
.	.	.	.	.	.	.	.	.	16B/	.	.	16g\ 16dd\	.	16ff\	.	.	.	.	.	.	.	.	.	.	.	.	.	.	.	.
8B\J	.	.	.	.	.	.	.	.	16B/	.	.	16g\ 16dd\	.	16ee\	.	.	.	.	.	.	.	.	.	.	.	.	.	.	.	.
.	.	.	.	.	.	.	.	.	16B/JJ	.	.	16g\JJ 16dd\	.	16ff\JJ	.	.	.	.	.	.	.	.	.	.	.	.	.	.	.	.
=24	=24	=24	=24	=24	=24	=24	=24	=24	=24	=24	=24	=24	=24	=24	=24	=24	=24	=24	=24	=24	=24	=24	=24	=24	=24	=24	=24	=24	=24	=24
*tremolo	*	*	*	*	*	*	*	*	*	*	*	*	*	*	*	*	*	*	*	*	*	*	*	*	*	*	*	*	*	*
*	*	*	*2\left	*	*	*	*	*	*2\right	*	*	*	*	*	*	*	*	*	*	*	*	*	*	*	*	*	*	*	*	*
!	!	!	!	!	!	!	!	!	!	!	!	!	!	!	!	!	!LO:MO:null:mod=tu-	!	!	!	!LO:MO:null:mod=tu-	!	!	!	!LO:MO:null:mod=tu-	!	!	!	!	!
8c\L	6 4	.	2f\ 2a\	.	.	2a/	2f\	.	16c\LL	.	.	16f/LL 16a/	.	16aa\LL	.	2.c\	.	.	.	(2f\	.	.	.	(2a\	.	.	.	2.cc\	tu-	.
.	.	.	.	.	.	.	.	.	16c\	.	.	16f/ 16a/	.	16ff\	.	.	.	.	.	.	.	.	.	.	.	.	.	.	.	.
8c\	.	.	.	.	.	.	.	.	16c\	.	.	16f/ 16a/	.	16ddd\	.	.	.	.	.	.	.	.	.	.	.	.	.	.	.	.
.	.	.	.	.	.	.	.	.	16c\	.	.	16f/ 16a/	.	16ccc\JJ	.	.	.	.	.	.	.	.	.	.	.	.	.	.	.	.
8c\	.	.	.	.	.	.	.	.	16c\	.	.	16f/ 16a/	.	16bb-\LL	.	.	.	.	.	.	.	.	.	.	.	.	.	.	.	.
.	.	.	.	.	.	.	.	.	16c\	.	.	16f/ 16a/	.	16aa\	.	.	.	.	.	.	.	.	.	.	.	.	.	.	.	.
8c\	.	.	.	.	.	.	.	.	16c\	.	.	16f/ 16a/	.	16gg\	.	.	.	.	.	.	.	.	.	.	.	.	.	.	.	.
.	.	.	.	.	.	.	.	.	16c\	.	.	16f/JJ 16a/	.	16ff\JJ	.	.	.	.	.	.	.	.	.	.	.	.	.	.	.	.
8c\	.	.	4c\ 4g\	.	.	4b-/	4g\	.	16c\	.	.	16g/LL 16b-/	.	16ee\LL	.	.	.	.	.	4e\)	.	.	.	4g\)	.	.	.	.	.	.
.	.	.	.	.	.	.	.	.	16c\	.	.	16g/ 16b-/	.	16ddd\	.	.	.	.	.	.	.	.	.	.	.	.	.	.	.	.
8c\J	.	.	.	.	.	.	.	.	16c\	.	.	16g/ 16b-/	.	16ccc\	.	.	.	.	.	.	.	.	.	.	.	.	.	.	.	.
.	.	.	.	.	.	.	.	.	16c\JJ	.	.	16g/JJ 16b-/	.	16ee\JJ	.	.	.	.	.	.	.	.	.	.	.	.	.	.	.	.
*	*	*	*	*	*	*v	*v	*	*	*	*	*	*	*	*	*	*	*	*	*	*	*	*	*	*	*	*	*	*	*
=25	=25	=25	=25	=25	=25	=25	=25	=25	=25	=25	=25	=25	=25	=25	=25	=25	=25	=25	=25	=25	=25	=25	=25	=25	=25	=25	=25	=25	=25
!	!	!	!	!	!	!	!	!	!	!	!	!	!	!	!	!LO:MO:null:mod=-a	!	!	!	!LO:MO:null:mod=-a	!	!	!	!LO:MO:null:mod=-a	!	!	!	!	!
8.F\L	.	.	8.f\L 8.a\	.	.	8.f/L 8.a/	.	8.F/L	.	.	8.f/L 8.a/	.	8.ff\L	.	2F\	.	.	.	2f\	.	.	.	2a\	.	.	.	2cc\	-a	.
16F\Jk	.	.	16f\Jk 16a\	.	.	16f/Jk 16a/	.	16F/Jk	.	.	16f/Jk 16a/	.	16cc\Jk 16aa\	.	.	.	.	.	.	.	.	.	.	.	.	.	.	.	.
4F\	.	.	4f\ 4a\	.	.	4f/ 4a/	.	4F/	.	.	4f/ 4a/	.	4cc\ 4aa\	.	.	.	.	.	.	.	.	.	.	.	.	.	.	.	.
!LO:MO:mod=|	!	!	!	!	!	!	!	!	!	!	!	!	!	!	!	!	!	!	!	!	!	!	!	!	!	!	!	!	!
=||	|	|	|	==	==	|	|	|	==	==	|	|	|	|	|	|	==	==	|	|	==	==	|	|	==	==	|	|	|
*clefC1	*	*	*	*	*	*	*	*	*	*	*	*	*	*	*	*	*	*	*	*	*	*	*	*	*	*	*	*	*
*^	*	*	*	*	*	*	*	*	*	*	*	*	*	*	*	*	*	*	*	*	*	*	*	*	*	*	*	*	*
!!!OMD:
!!!OMD-mod: Allegro
!LO:TX:a:B:t=piu Allegro:mod=	!	!	!	!	!	!	!	!	!	!	!	!	!	!LO:TX:a:t=piu Allegro:mod=	!	!	!	!	!	!	!	!	!	!	!	!	!	!LO:TX:a:t=piu Allegro:mod=	!	!
8cc/L	4rGG	.	.	4r	.	.	8cc\L	.	4r	.	.	4r	.	8cc\L	.	4r	.	.	.	4r	.	.	.	4r	.	.	.	8cc\L	Ho-	.
8b-/J	.	.	.	.	.	.	8b-\J	.	.	.	.	.	.	8b-\J	.	.	.	.	.	.	.	.	.	.	.	.	.	8b-\J	.	.
=26	=26	=26	=26	=26	=26	=26	=26	=26	=26	=26	=26	=26	=26	=26	=26	=26	=26	=26	=26	=26	=26	=26	=26	=26	=26	=26	=26	=26	=26	=26
!LO:TX:a:t=Legato	!	!	!	!	!	!	!LO:TX:a:t=legato:mod=Legato	!	!	!	!	!	!	!LO:SIC:o=:v:niejednoznaczny zapis łuku	!	!	!	!	!	!	!	!	!	!	!	!	!	!LO:SIC:o=:v:niejednoznaczny zapis łuku	!	!
8a/L	2.r	.	.	2.r	.	.	8a\L	.	2.r	.	.	2.r	.	(8a\L	.	2.r	.	.	.	2.r	.	.	.	2.r	.	.	.	(8a\L	-san-	.
8b-/	.	.	.	.	.	.	8b-\	.	.	.	.	.	.	8b-\	.	.	.	.	.	.	.	.	.	.	.	.	.	8b-\	.	.
8cc/	.	.	.	.	.	.	8cc\	.	.	.	.	.	.	8cc\	.	.	.	.	.	.	.	.	.	.	.	.	.	8cc\	.	.
!	!	!	!	!	!	!	!	!	!	!	!	!	!	!LO:TX:a:t=legato:mod=Legato	!	!	!	!	!	!	!	!	!	!	!	!	!	!	!	!
8dd/	.	.	.	.	.	.	8dd\	.	.	.	.	.	.	8dd\	.	.	.	.	.	.	.	.	.	.	.	.	.	8dd\J	.	.
8cc/	.	.	.	.	.	.	8cc\	.	.	.	.	.	.	8cc\	.	.	.	.	.	.	.	.	.	.	.	.	.	8cc\L)	-na	.
8a/J	.	.	.	.	.	.	8a\J	.	.	.	.	.	.	8a\J	.	.	.	.	.	.	.	.	.	.	.	.	.	8a\J	.	.
=27	=27	=27	=27	=27	=27	=27	=27	=27	=27	=27	=27	=27	=27	=27	=27	=27	=27	=27	=27	=27	=27	=27	=27	=27	=27	=27	=27	=27	=27	=27
8g/L	2.r	.	.	2.r	.	.	(8g\L	.	2.r	.	.	2.r	.	8g\L	.	2.r	.	.	.	2.r	.	.	.	2.r	.	.	.	(8g\L	in	.
8a/	.	.	.	.	.	.	8a\	.	.	.	.	.	.	8a\)	.	.	.	.	.	.	.	.	.	.	.	.	.	8a\	.	.
8b-/	.	.	.	.	.	.	8b-\	.	.	.	.	.	.	8b-\	.	.	.	.	.	.	.	.	.	.	.	.	.	8b-\	.	.
8cc/	.	.	.	.	.	.	8cc\	.	.	.	.	.	.	8cc\	.	.	.	.	.	.	.	.	.	.	.	.	.	8cc\J)	.	.
8dd/	.	.	.	.	.	.	8dd\	.	.	.	.	.	.	8dd\	.	.	.	.	.	.	.	.	.	.	.	.	.	(8dd\L	ex-	.
8ee/J	.	.	.	.	.	.	8ee\J)	.	.	.	.	.	.	8ee\J	.	.	.	.	.	.	.	.	.	.	.	.	.	8ee\J)	.	.
=28	=28	=28	=28	=28	=28	=28	=28	=28	=28	=28	=28	=28	=28	=28	=28	=28	=28	=28	=28	=28	=28	=28	=28	=28	=28	=28	=28	=28	=28	=28
*	*	*	*	*	*	*	*^	*	*	*	*	*	*	*	*	*	*	*	*	*	*	*	*	*	*	*	*	*	*	*
8ff/L	4r	.	.	2.r	.	.	8ff/L	4r	.	2.r	.	.	4r	.	(8ff\L	.	2.r	.	.	.	2.r	.	.	.	4r	.	.	.	(8ff\L	-cel-	.
8ee/	.	.	.	.	.	.	8ee/	.	.	.	.	.	.	.	8ee\	.	.	.	.	.	.	.	.	.	.	.	.	.	8ee\	.	.
8dd/	4r	.	.	.	.	.	8dd/	4r	.	.	.	.	4r	.	8dd\	.	.	.	.	.	.	.	.	.	4r	.	.	.	8dd\	.	.
8cc/	.	.	.	.	.	.	8cc/	.	.	.	.	.	.	.	8cc\	.	.	.	.	.	.	.	.	.	.	.	.	.	8cc\	.	.
8bn/	8g\L	.	.	.	.	.	8bX/	8g\L	.	.	.	.	(8g/L	.	8bn\	.	.	.	.	.	.	.	.	.	8g\L	Ho-	.	.	8bn\	.	.
8dd/J	8f\J	.	.	.	.	.	8dd/J	8f\J	.	.	.	.	8f/J)	.	8dd\J)	.	.	.	.	.	.	.	.	.	8f\J	.	.	.	8dd\J)	.	.
=29	=29	=29	=29	=29	=29	=29	=29	=29	=29	=29	=29	=29	=29	=29	=29	=29	=29	=29	=29	=29	=29	=29	=29	=29	=29	=29	=29	=29	=29	=29	=29
8cc/L	8e\L	.	.	2.r	.	.	8cc/L	8e\L	.	2.r	.	.	8e/L	.	(8cc\L	.	2.r	.	.	.	2.r	.	.	.	(8e\L	-san-	.	.	(8cc\L	-sis	.
8dd/	8f\	.	.	.	.	.	8dd/	8f\	.	.	.	.	8f/	.	8dd\	.	.	.	.	.	.	.	.	.	8f\	.	.	.	8dd\	.	.
8ee/	8g\	.	.	.	.	.	8ee/	8g\	.	.	.	.	8g/	.	8ee\	.	.	.	.	.	.	.	.	.	8g\	.	.	.	8ee\	.	.
8ff/	8a\	.	.	.	.	.	8ff/	8a\	.	.	.	.	8a/	.	8ff\	.	.	.	.	.	.	.	.	.	8a\J	.	.	.	8ff\J)	.	.
8ee/	8g\	.	.	.	.	.	8ee/	8g\	.	.	.	.	8g/	.	8ee\	.	.	.	.	.	.	.	.	.	8g\L	-na	.	.	8ee\L	ho-	.
8cc/J	8e\J	.	.	.	.	.	8cc/J	8e\J	.	.	.	.	8e/J	.	8cc\J)	.	.	.	.	.	.	.	.	.	8e\J)	.	.	.	8cc\J	.	.
=30	=30	=30	=30	=30	=30	=30	=30	=30	=30	=30	=30	=30	=30	=30	=30	=30	=30	=30	=30	=30	=30	=30	=30	=30	=30	=30	=30	=30	=30	=30	=30
8bn/L	8d\L	.	.	2.r	.	.	8bnX/L	8d\L	.	2.r	.	.	(8d/L	.	(8bn\L	.	2.r	.	.	.	2.r	.	.	.	(8d\L	in	.	.	(8bn\L	-san-	.
8cc/	8e\	.	.	.	.	.	8cc/	8e\	.	.	.	.	8e/	.	8cc\	.	.	.	.	.	.	.	.	.	8e\	.	.	.	8cc\	.	.
8dd/	8f\	.	.	.	.	.	8dd/	8f\	.	.	.	.	8f/	.	8dd\	.	.	.	.	.	.	.	.	.	8f\	.	.	.	8dd\	.	.
8ee/	8g\	.	.	.	.	.	8ee/	8g\	.	.	.	.	8g/	.	8ee\	.	.	.	.	.	.	.	.	.	8g\)	.	.	.	8ee\J)	.	.
8ff/	8a\	.	.	.	.	.	8ff/	8a\	.	.	.	.	8a/	.	8ff\	.	.	.	.	.	.	.	.	.	8a\	ex-	.	.	8ff\L	-na	.
8dd/J	8bn\J	.	.	.	.	.	8dd/J	8bnX\J	.	.	.	.	8bn/J)	.	8dd\J)	.	.	.	.	.	.	.	.	.	8bn\J	.	.	.	8dd\J	.	.
=31	=31	=31	=31	=31	=31	=31	=31	=31	=31	=31	=31	=31	=31	=31	=31	=31	=31	=31	=31	=31	=31	=31	=31	=31	=31	=31	=31	=31	=31	=31	=31
8ee/L	8cc\L	.	.	2.r	.	.	8ee/L	8cc\L	.	4r	.	.	8cc\L	.	8ee\L	.	2.r	.	.	.	4r	.	.	.	8cc\L	-cel-	.	.	(8ee\L	in	.
8ff/	8bn\	.	.	.	.	.	8ff/	8bX\	.	.	.	.	8bn\	.	8ff\	.	.	.	.	.	.	.	.	.	8bn\	.	.	.	8ff\	.	.
8gg/	8b-X\	.	.	.	.	.	8gg/	8b-\	.	4r	.	.	8b-X\	.	8gg\	.	.	.	.	.	4r	.	.	.	8b-X\	.	.	.	8gg\	.	.
8ff/	8a\J	.	.	.	.	.	8ff/	8a\	.	.	.	.	8a\	.	8ff\	.	.	.	.	.	.	.	.	.	8a\	.	.	.	8ff\J	.	.
*clefC4	*	*	*	*	*	*	*	*	*	*	*	*	*	*	*	*	*	*	*	*	*	*	*	*	*	*	*	*	*	*	*
!	!LO:TX:t=P:problem:w tym spinie klucz C1	!	!	!	!	!	!	!	!	!	!	!	!	!	!	!	!	!	!	!	!	!	!	!	!	!	!	!	!	!	!
8ee/	8c\L	.	.	.	.	.	8ee/	8g\	.	8c/L	.	.	8g\	.	8ee\	.	.	.	.	.	8c\L	Ho-	.	.	8g\	.	.	.	8ee\L	ex-	.
8gg/J	8B-X\J	2	.	.	.	.	8gg/J	8e\J	.	8B-/J	.	.	8e\J	.	8gg\J	.	.	.	.	.	8B-\J	.	.	.	8e\J	.	.	.	8gg\J	.	.
*v	*v	*	*	*	*	*	*	*	*	*	*	*	*	*	*	*	*	*	*	*	*	*	*	*	*	*	*	*	*	*	*
=32	=32	=32	=32	=32	=32	=32	=32	=32	=32	=32	=32	=32	=32	=32	=32	=32	=32	=32	=32	=32	=32	=32	=32	=32	=32	=32	=32	=32	=32	=32
*	*	*	*	*	*	*	*	*	*	*	*	*	*	*2\right	*	*	*	*	*	*	*	*	*	*	*	*	*	*	*	*
!LO:TX:t=P:problem:zapis w kluczu tenorowym	!	!	!	!	!	!	!	!	!	!	!	!	!	!	!	!	!	!	!	!	!	!	!	!	!	!	!	!	!	!
8A\L	6	.	4r	.	.	2.ff/	8f\L	.	(8A/L	.	.	8f/L	.	2ff\	.	2.r	.	.	.	8A\L	-san-	.	.	8f\L	-sis	.	.	2.ff\)	-cel-	.
8B-\	6	.	.	.	.	.	8g\	.	8B-/	.	.	8g/	.	.	.	.	.	.	.	8B-\	.	.	.	8g\	.	.	.	.	.	.
8c\	6	.	4r	.	.	.	8a\	.	8c/	.	.	8a/	.	.	.	.	.	.	.	8c\	.	.	.	8a\	.	.	.	.	.	.
8d\	6	.	.	.	.	.	8b-\J	.	8d/	.	.	8b-/	.	.	.	.	.	.	.	8d\J	.	.	.	8b-\J	.	.	.	.	.	.
8c\	6	.	8F/L 8f/	.	.	.	8a\L	.	8c/	.	.	8a/	.	8ff\L	.	.	.	.	.	8c\L	-na	.	.	8a\L	ho-	.	.	.	.	.
8A\J	6	.	8A/J 8a/	.	.	.	8f\J	.	8A/J)	.	.	8f/J	.	8aa\J	.	.	.	.	.	8A\J	.	.	.	8f\J	.	.	.	.	.	.
=33	=33	=33	=33	=33	=33	=33	=33	=33	=33	=33	=33	=33	=33	=33	=33	=33	=33	=33	=33	=33	=33	=33	=33	=33	=33	=33	=33	=33	=33	=33
(8G/L	4_ 6	.	4c\ 4cc\	.	.	4cc/	8e\L	.	8G/L	.	.	(8e/L	.	4ccc\	.	2.r	.	.	.	(8G\L	in	.	.	8e\L	-san-	.	.	4cc\	-sis	.
8A/	_ 6	.	.	.	.	.	8f\	.	8A/	.	.	8f/	.	.	.	.	.	.	.	8A\	.	.	.	8f\	.	.	.	.	.	.
8B-/	_ 6	.	4r	.	.	4r	8g\	.	8B-/	.	.	8g/	.	4r	.	.	.	.	.	8B-\	.	.	.	8g\	.	.	.	4r	.	.
8c/	x 6	.	.	.	.	.	8a\	.	8c/	.	.	8a/	.	.	.	.	.	.	.	8c\J)	.	.	.	8a\J	.	.	.	.	.	.
8d/	6_ 6	.	8r	.	.	4b-/	8b-\	.	8d/	.	.	8b-/	.	4bb-\	.	.	.	.	.	8d\L	ex-	.	.	8b-\L	-na	.	.	4b-\	Ho-	.
8e/J)	_ 3	.	8c/ 8g/	.	.	.	8g\J	.	8e/J	.	.	8g/J)	.	.	.	.	.	.	.	8e\J	.	.	.	8g\J	.	.	.	.	.	.
=34	=34	=34	=34	=34	=34	=34	=34	=34	=34	=34	=34	=34	=34	=34	=34	=34	=34	=34	=34	=34	=34	=34	=34	=34	=34	=34	=34	=34	=34	=34
*^	*	*	*^	*	*	*	*	*	*	*	*	*	*	*	*	*	*	*	*	*	*	*	*	*	*	*	*	*	*	*
8f/L	4r	6_ 3	.	8f/ 8a/	8ryy	.	.	8a/L	8a\L	.	(8f\L	.	.	8a/L	.	(8aa\L	.	4r	.	.	.	(8f\L	-cel-	.	.	(8a\L	in	.	.	8a\L	-san-	.
8e/	.	_ 3	.	8r	8ryy	.	.	8cc/J	8g\	.	8e\	.	.	8g/	.	8ccc\J)	.	.	.	.	.	8e\	.	.	.	8g\	.	.	.	8cc\J	.	.
8d/	4r	_ 3	.	4r	4ryy	.	.	4cc/	8f\	.	8d\	.	.	8f/	.	4ccc\	.	4r	.	.	.	8d\	.	.	.	8f\	.	.	.	(4cc\	-na	.
8c/J	.	.	.	.	.	.	.	.	8e\J	.	8c\	.	.	8e/J	.	.	.	.	.	.	.	8c\	.	.	.	8e\J)	.	.	.	.	.	.
*clefF4	*	*	*	*	*	*	*	*	*	*	*	*	*	*	*	*	*	*	*	*	*	*	*	*	*	*	*	*	*	*	*	*
8G\L	4ryy	_ n3	.	4g/	4g\	.	.	8dd/L	4g\	.	8Bn\	.	.	4g/	.	8ddd\L	.	(8G\L	Ho-	.	.	8Bn\	.	.	.	4g\	ex-	.	.	8dd\L	ho-	.
8F\J	.	6 2	.	.	.	.	.	8bX/J	.	.	8d\J)	.	.	.	.	8bbn\J	.	8F\J)	.	.	.	8d\J)	.	.	.	.	.	.	.	8bn\J)	.	.
*v	*v	*	*	*	*	*	*	*	*	*	*	*	*	*	*	*	*	*	*	*	*	*	*	*	*	*	*	*	*	*	*	*
*	*	*	*v	*v	*	*	*	*	*	*	*	*	*	*	*	*	*	*	*	*	*	*	*	*	*	*	*	*	*	*	*
=35	=35	=35	=35	=35	=35	=35	=35	=35	=35	=35	=35	=35	=35	=35	=35	=35	=35	=35	=35	=35	=35	=35	=35	=35	=35	=35	=35	=35	=35	=35
!LO:PB:g=original	!	!	!	!	!	!	!	!	!	!	!	!	!	!	!	!	!	!	!	!	!	!	!	!	!	!	!	!	!	!
!	!	!	!	!	!	!	!	!	!	!	!	!LO:SIC:v:s=2cc	!	!	!	!	!	!	!	!	!	!	!	!	!	!	!	!	!	!
8E\L	6	.	4c/ 4g/	.	.	4cc/	2c\	.	8c\L	.	.	2b-\	.	4ccc\	.	8E\L	-san-	.	.	8c\L	-sis	.	.	(2.cc\	-cel-	.	.	4cc\	-san-	.
8F\	6	.	.	.	.	.	.	.	8d\	.	.	.	.	.	.	8F\	.	.	.	8d\	.	.	.	.	.	.	.	.	.	.
8G\	6	.	4r	.	.	8cc/	.	.	8e\	.	.	.	.	8ccc\	.	8G\	.	.	.	8e\	.	.	.	.	.	.	.	8cc\	-na	.
8A\	6	.	.	.	.	8r	.	.	8f\	.	.	.	.	8r	.	8A\J	.	.	.	8f\J	.	.	.	.	.	.	.	8r	.	.
8G\	6	.	4c/	.	.	4r	8c\L	.	8e\	.	.	8cc\L	.	4r	.	(8G\L	-na	.	.	8e\L	ho-	.	.	.	.	.	.	4r	.	.
8E\J	6	.	.	.	.	.	8e\J	.	8c\J	.	.	8ee\J	.	.	.	8E\J)	.	.	.	8c\J	.	.	.	.	.	.	.	.	.	.
=36	=36	=36	=36	=36	=36	=36	=36	=36	=36	=36	=36	=36	=36	=36	=36	=36	=36	=36	=36	=36	=36	=36	=36	=36	=36	=36	=36	=36	=36	=36
!	!	!	!	!	!	!	!	!	!	!	!	!LO:MO:mod=!null:null	!	!	!	!	!	!	!	!	!	!	!	!	!	!	!	!	!	!
!	!	!	!	!	!	!	!	!	!	!	!	!LO:N:vis=2	!	!	!	!	!	!	!	!	!	!	!	!	!	!	!	!	!	!
8D\L	6	.	2.F/ 2.f/	.	.	2.r	4g\	.	8Bn\L	.	.	4gg\	.	2.r	.	8D\L	in	.	.	8Bn\L	-san-	.	.	4g\)	-sis	.	.	2.r	.	.
8E\	6	.	.	.	.	.	.	.	8c\	.	.	.	.	.	.	8E\	.	.	.	8c\	.	.	.	.	.	.	.	.	.	.
8F\	6	.	.	.	.	.	4r	.	8d\	.	.	4r	.	.	.	8F\	.	.	.	8d\	.	.	.	4r	.	.	.	.	.	.
8G\	6	.	.	.	.	.	.	.	8e\	.	.	.	.	.	.	8G\J	.	.	.	8e\J	.	.	.	.	.	.	.	.	.	.
8A\	6	.	.	.	.	.	4f\	.	8f\	.	.	4ff\	.	.	.	(8A\L	ex-	.	.	8f\L	-na	.	.	(4f\	ho-	.	.	.	.	.
8Bn\J	6 5	.	.	.	.	.	.	.	8d\J	.	.	.	.	.	.	8Bn\J)	.	.	.	8d\J	.	.	.	.	.	.	.	.	.	.
=37	=37	=37	=37	=37	=37	=37	=37	=37	=37	=37	=37	=37	=37	=37	=37	=37	=37	=37	=37	=37	=37	=37	=37	=37	=37	=37	=37	=37	=37	=37
8c\L	.	.	2.c/	.	.	4r	8e\L	.	8e\L	.	.	8ee\L	.	4r	.	(8c\L	-cel-	.	.	(8e\L	in	.	.	(8e\L	.	.	.	4r	.	.
8Bn\	6_	.	.	.	.	.	8f\	.	8d\J	.	.	8ff\	.	.	.	8Bny\	.	.	.	8f\	.	.	.	8f\	.	.	.	.	.	.
8B-X\	_	.	.	.	.	4r	8g\	.	2c\	.	.	8gg\	.	4r	.	8B-X\	.	.	.	8g\	.	.	.	8g\	.	.	.	4r	.	.
8A\J	_	.	.	.	.	.	8f\	.	.	.	.	8ff\	.	.	.	8A\	.	.	.	8f\J)	.	.	.	8f\)	.	.	.	.	.	.
8G\L	4 3	.	.	.	.	8cc/L	8e\	.	.	.	.	8ee\	.	8ccc\L	.	8G\	.	.	.	8e\L	ex-	.	.	8e\	.	.	.	8cc\L	ho-	.
8E\J	6 5	.	.	.	.	8b-/J	8g\J	.	.	.	.	8gg\J	.	8bb-\J	.	8E\J)	.	.	.	8g\J	.	.	.	8g\J)	.	.	.	8b-\J	.	.
=38	=38	=38	=38	=38	=38	=38	=38	=38	=38	=38	=38	=38	=38	=38	=38	=38	=38	=38	=38	=38	=38	=38	=38	=38	=38	=38	=38	=38	=38	=38
8F\L	3	.	2F/	.	.	8a/L	4f\	.	8f\L	.	.	2ff\	.	8aa\L	.	(8F\L	-sis	.	.	(2.f\	-cel-	.	.	4f\	-san-	.	.	8a\L	-san-	.
8G\	3	.	.	.	.	8b-/	.	.	8g\	.	.	.	.	8bb-\	.	8G\	.	.	.	.	.	.	.	.	.	.	.	8b-\	.	.
8A\	3	.	.	.	.	8cc/	8f\	.	8a\	.	.	.	.	8ccc\	.	8A\	.	.	.	.	.	.	.	8f\	-na	.	.	8cc\	.	.
8B-\	3	.	.	.	.	8dd/J	8r	.	8b-\	.	.	.	.	8ddd\	.	8B-\J)	.	.	.	.	.	.	.	8r	.	.	.	8dd\J	.	.
8A\	3	.	4r	.	.	8cc/L	4r	.	8a\	.	.	8ff\L	.	8ccc\	.	(8A\L	ho-	.	.	.	.	.	.	4r	.	.	.	8cc\L	-na	.
8F\J	3	.	.	.	.	8a/J	.	.	8f\J	.	.	8aa\J	.	8aa\J	.	8F\J)	.	.	.	.	.	.	.	.	.	.	.	8a\J	.	.
=39	=39	=39	=39	=39	=39	=39	=39	=39	=39	=39	=39	=39	=39	=39	=39	=39	=39	=39	=39	=39	=39	=39	=39	=39	=39	=39	=39	=39	=39	=39
!	!	!	!	!	!	!	!	!	!LO:TX:a:t=Col Basso:mod=	!	!	!	!	!	!	!	!	!	!	!	!	!	!	!	!	!	!	!	!	!
!	!	!	!	!	!	!	!	!	!LO:SIC:o=:v:Col Basso w tt. 39-43	!	!	!	!	!	!	!	!	!	!	!	!	!	!	!	!	!	!	!	!	!
8E\L	3	.	4r	.	.	8g/L	4rf	.	8e\Lyy	.	.	4ccc\	.	8gg\L	.	(8E\L	-san-	.	.	4c\)	-sis	.	.	2.r	.	.	.	(8g\L	in	.
8F\	3	.	.	.	.	8a/	.	.	8f\yy	.	.	.	.	8aa\	.	8F\	.	.	.	.	.	.	.	.	.	.	.	8a\	.	.
8G\	3	.	4r	.	.	8b-/	4r	.	8g\yy	.	.	4r	.	8bb-\	.	8G\	.	.	.	4r	.	.	.	.	.	.	.	8b-\	.	.
8A\J	3	.	.	.	.	8cc/	.	.	8a\Jyy	.	.	.	.	8ccc\	.	8A\J	.	.	.	.	.	.	.	.	.	.	.	8cc\	.	.
!	!	!	!LO:MO:mod=!null:null	!	!	!	!	!	!	!	!	!	!	!	!	!	!	!	!	!	!	!	!	!	!	!	!	!	!	!
!	!	!	!LO:N:vis=8	!	!	!	!	!	!	!	!	!	!	!	!	!	!	!	!	!	!	!	!	!	!	!	!	!	!	!
8B-\L	3	.	4c/ 4g/	.	.	8dd/	4b-\	.	8b-\Lyy	.	.	4bb-\	.	8ddd\	.	8B-\L	.	.	.	4B-\	ho-	.	.	.	.	.	.	8dd\	ex-	.
8G\J	6	.	.	.	.	8ee/J	.	.	8g\Jyy	.	.	.	.	8eee\J	.	8G\J	.	.	.	.	.	.	.	.	.	.	.	8ee\J)	.	.
=40	=40	=40	=40	=40	=40	=40	=40	=40	=40	=40	=40	=40	=40	=40	=40	=40	=40	=40	=40	=40	=40	=40	=40	=40	=40	=40	=40	=40	=40	=40
*	*	*	*2\right	*	*	*	*	*	*	*	*	*	*	*	*	*	*	*	*	*	*	*	*	*	*	*	*	*	*	*
8F\L	3	.	2.f\	.	.	2.ff/	8a\L	.	8f\Lyy	.	.	8aa\L	.	2.fff\	.	8F\L	.	.	.	(8A\L	-san-	.	.	4r	.	.	.	2.ff\	-cel-	.
8G\	3	.	.	.	.	.	8b-\	.	8g\yy	.	.	8bb-\	.	.	.	8G\)	.	.	.	8B-\	.	.	.	.	.	.	.	.	.	.
8A\	3	.	.	.	.	.	8cc\	.	8a\yy	.	.	8ccc\	.	.	.	8A\	.	.	.	8c\	.	.	.	4r	.	.	.	.	.	.
8B-\	3	.	.	.	.	.	8dd\	.	8b-\yy	.	.	8ddd\	.	.	.	8B-\	.	.	.	8d\	.	.	.	.	.	.	.	.	.	.
8A\	3	.	.	.	.	.	8cc\	.	8a\yy	.	.	8ccc\	.	.	.	8A\	.	.	.	8c\	.	.	.	8f\	in	.	.	.	.	.
8F\J	3	.	.	.	.	.	8a\J	.	8f\Jyy	.	.	8aa\J	.	.	.	8F\J	.	.	.	8A\J)	.	.	.	8a\	ex-	.	.	.	.	.
=41	=41	=41	=41	=41	=41	=41	=41	=41	=41	=41	=41	=41	=41	=41	=41	=41	=41	=41	=41	=41	=41	=41	=41	=41	=41	=41	=41	=41	=41	=41
8E\L	3	.	2c/	.	.	2cc/	8g\L	.	8e\Lyy	.	.	8gg\L	.	2ccc\	.	8E\L	.	.	.	(8G\L	.	.	.	4cc\	-cel-	.	.	(2cc\	-sis	.
8F\	3	.	.	.	.	.	8a\	.	8f\yy	.	.	8aa\	.	.	.	8F\	.	.	.	8A\	.	.	.	.	.	.	.	.	.	.
8G\	3	.	.	.	.	.	8b-\	.	8g\yy	.	.	8bb-\	.	.	.	8G\	.	.	.	8B-\	.	.	.	8cc\	-sis	.	.	.	.	.
8A\	3	.	.	.	.	.	8cc\	.	8a\yy	.	.	8ccc\	.	.	.	8A\	.	.	.	8c\	.	.	.	8r	.	.	.	.	.	.
8G\	3	.	4r	.	.	8ryy	8b-\	.	8g\yy	.	.	8bb-\	.	4ccc#X\	.	8G\	.	.	.	8B-\	.	.	.	4r	.	.	.	4cc#X\)	.	.
!	!	!	!	!	!	!LO:MO:mod=!null:null	!	!	!	!	!	!	!	!	!	!	!	!	!	!	!	!	!	!	!	!	!	!	!	!
!	!	!	!	!	!	!LO:N:vis=4	!	!	!	!	!	!	!	!	!	!	!	!	!	!	!	!	!	!	!	!	!	!	!	!
8E\J	3	.	.	.	.	8cc#X/	8g\J	.	8e\Jyy	.	.	8gg\J	.	.	.	8E\J	.	.	.	8G\J)	.	.	.	.	.	.	.	.	.	.
=42	=42	=42	=42	=42	=42	=42	=42	=42	=42	=42	=42	=42	=42	=42	=42	=42	=42	=42	=42	=42	=42	=42	=42	=42	=42	=42	=42	=42	=42	=42
!LO:PB:g=original	!	!	!	!	!	!	!	!	!	!	!	!	!	!	!	!	!	!	!	!	!	!	!	!	!	!	!	!	!	!
8D\L	3	.	2.A/ 2.a/	.	.	2dd/	8f\L	.	8d\Lyy	.	.	8ff\L	.	2.ddd\	.	8D\L	.	.	.	8F\L	.	.	.	4r	.	.	.	2.dd\	De-	.
8E\	3	.	.	.	.	.	8g\	.	8e\yy	.	.	8gg\	.	.	.	8E\	.	.	.	8G\	.	.	.	.	.	.	.	.	.	.
8F\	3	.	.	.	.	.	8a\	.	8f\yy	.	.	8aa\	.	.	.	8F\	.	.	.	8A\	.	.	.	4r	.	.	.	.	.	.
!	!	!	!	!	!	!	!	!	!	!	!	!	!	!	!	!LO:TX:a:t=g	!	!	!	!LO:TX:b:t=b	!	!	!	!	!	!	!	!	!	!
8G\	3	.	.	.	.	.	8b-\	.	8g\yy	.	.	8bb-\	.	.	.	8G\ 8E\	.	.	.	8B-\	.	.	.	.	.	.	.	.	.	.
8F\	3	.	.	.	.	8dd/L	8a\	.	8f\yy	.	.	8aa\	.	.	.	8F\	.	.	.	8A\	.	.	.	8d\	in	.	.	.	.	.
8D\J	3	.	.	.	.	8ff/J	8f\J	.	8d\Jyy	.	.	8ff\J	.	.	.	8D\J	.	.	.	8F\J	.	.	.	8f\	ex-	.	.	.	.	.
=43	=43	=43	=43	=43	=43	=43	=43	=43	=43	=43	=43	=43	=43	=43	=43	=43	=43	=43	=43	=43	=43	=43	=43	=43	=43	=43	=43	=43	=43	=43
8C#X\L	3	.	2.A/ 2.a/	.	.	4ryy	8e\L	.	8c#X\Lyy	.	.	8ee\L	.	2.aa\	.	8C#X\L	-na	.	.	(8E\L	-na	.	.	4a\	-cel-	.	.	2a\	-o	.
8D\	3	.	.	.	.	.	8f\	.	8d\yy	.	.	8ff\	.	.	.	8D\	.	.	.	8F\	.	.	.	.	.	.	.	.	.	.
8E\	3	.	.	.	.	2aa/	8g\	.	8e\yy	.	.	8gg\	.	.	.	8E\	.	.	.	8G\	.	.	.	8a\	-sis	.	.	.	.	.
8F\	3	.	.	.	.	.	8a\	.	8f\yy	.	.	8aa\	.	.	.	8F\J	.	.	.	8A\J)	.	.	.	8r	.	.	.	.	.	.
8E\	3	.	.	.	.	.	8g\	.	8e\yy	.	.	8gg\	.	.	.	8E\	in	.	.	8G\	in	.	.	8a\	in	.	.	8ee\	in	.
8C#\J	6 5	.	.	.	.	.	8e\J	.	8c#\Jyy	.	.	8ee\J	.	.	.	8C#\	ex-	.	.	8G\	ex-	.	.	8a\	ex-	.	.	8ee\	ex-	.
=44	=44	=44	=44	=44	=44	=44	=44	=44	=44	=44	=44	=44	=44	=44	=44	=44	=44	=44	=44	=44	=44	=44	=44	=44	=44	=44	=44	=44	=44	=44
8D\L	3	.	2.A/ [2.a/	.	.	4ryy	8f\L	.	8d\L	.	.	8ff\L	.	4aa\	.	(8D\L	-ce-	.	.	(8F/L	-cel-	.	.	4a\	-cel-	.	.	8ff\L	-cel-	.
8E\	3	.	.	.	.	.	8g\	.	8e\	.	.	8gg\	.	.	.	8E\)	.	.	.	8G/)	.	.	.	.	.	.	.	8dd\J	.	.
8F\	3	.	.	.	.	2aa/	8a\	.	8f\	.	.	8aa\	.	4aa\	.	(8F\	-sis	.	.	(8A/	-sis	.	.	4a\	-sis	.	.	4dd\	-sis	.
8E\	3	.	.	.	.	.	8g\	.	8e\	.	.	8gg\	.	.	.	8E\J)	.	.	.	8G/J)	.	.	.	.	.	.	.	.	.	.
8F\	3	.	.	.	.	.	8a\	.	8f\	.	.	8aa\	.	4aa\	.	8F\	in	.	.	8A/	in	.	.	8d\	in	.	.	8dd\	in	.
8D\J	3	.	.	.	.	.	8f\J	.	8d\J	.	.	8ff\J	.	.	.	8D\	ex-	.	.	8F/	ex-	.	.	8f\	ex-	.	.	8dd\	ex-	.
=45	=45	=45	=45	=45	=45	=45	=45	=45	=45	=45	=45	=45	=45	=45	=45	=45	=45	=45	=45	=45	=45	=45	=45	=45	=45	=45	=45	=45	=45	=45
8C#X\L	3	.	2.A/ 2.a/]	.	.	2.aa/	8e\L	.	8c#X\L	.	.	8ee\L	.	8aa\	.	(8C#X\L	-cel-	.	.	8E/L	-cel-	.	.	4a\	-cel-	.	.	4a\	-cel-	.
8D\	3	.	.	.	.	.	8f\	.	8d\	.	.	8ff\	.	4aa\	.	8D\)	.	.	.	8F/J	.	.	.	.	.	.	.	.	.	.
8E\	3	.	.	.	.	.	8g\	.	8e\	.	.	8gg\	.	.	.	(8E\	-sis	.	.	8G/L	-sis	.	.	8a\	-sis	.	.	8a\	-sis	.
8D\	3	.	.	.	.	.	8f\	.	8d\	.	.	8ff\	.	4aa\	.	8D\J)	.	.	.	8F/J	.	.	.	8r	.	.	.	8r	.	.
8E\	3	.	.	.	.	.	8g\	.	8e\	.	.	8gg\	.	.	.	8E\	in	.	.	8G/	in	.	.	8a\	in	.	.	8ee\	in	.
8C#\J	3	.	.	.	.	.	8e\J	.	8c#\J	.	.	8ee\J	.	8aa\	.	8C#\	ex-	.	.	8G/	ex-	.	.	8a\	ex-	.	.	8ee\	ex-	.
=46	=46	=46	=46	=46	=46	=46	=46	=46	=46	=46	=46	=46	=46	=46	=46	=46	=46	=46	=46	=46	=46	=46	=46	=46	=46	=46	=46	=46	=46	=46
!	!	!	!	!	!	!	!	!LO:DY:b	!	!	!	!	!	!	!	!	!	!	!	!	!	!	!	!	!	!	!	!	!	!
*	*	*	*	*	*	*	*	*	*	*	*	*2\left	*	*tremolo	*	*	*	*	*	*	*	*	*	*	*	*	*	*	*	*
8Cn\L	6_ #4_ -3_	.	2.A/ 2.a/	.	.	2.ff#X/	2.ee-\	sf	(8cn\L	.	.	16ee-X\LL 16ff#X\	.	16aa\LL	.	4Cn/	-cel-	.	.	4e-X\	-cel-	.	.	4a\	-cel-	.	.	4ff#X\	-cel-	.
.	.	.	.	.	.	.	.	.	.	.	.	16ee-\ 16ff#\	.	16aa\	.	.	.	.	.	.	.	.	.	.	.	.	.	.	.	.
8F#X\	.	.	.	.	.	.	.	.	8f#X\	.	.	16ee-\ 16ff#\	.	16aa\	.	.	.	.	.	.	.	.	.	.	.	.	.	.	.	.
.	.	.	.	.	.	.	.	.	.	.	.	16ee-\ 16ff#\	.	16aa\	.	.	.	.	.	.	.	.	.	.	.	.	.	.	.	.
8A\	.	.	.	.	.	.	.	.	8a\	.	.	16ee-\ 16ff#\	.	16aa\	.	4C/	-sis	.	.	4e-\	-sis	.	.	4a\	-sis	.	.	4ff#\	-sis	.
.	.	.	.	.	.	.	.	.	.	.	.	16ee-\ 16ff#\	.	16aa\	.	.	.	.	.	.	.	.	.	.	.	.	.	.	.	.
8F#\	.	.	.	.	.	.	.	.	8f#\	.	.	16ee-\ 16ff#\	.	16aa\	.	.	.	.	.	.	.	.	.	.	.	.	.	.	.	.
.	.	.	.	.	.	.	.	.	.	.	.	16ee-\ 16ff#\	.	16aa\	.	.	.	.	.	.	.	.	.	.	.	.	.	.	.	.
8E-X\	.	.	.	.	.	.	.	.	8e-X\	.	.	16ee-\ 16ff#\	.	16aa\	.	4r	.	.	.	4r	.	.	.	4r	.	.	.	4r	.	.
.	.	.	.	.	.	.	.	.	.	.	.	16ee-\ 16ff#\	.	16aa\	.	.	.	.	.	.	.	.	.	.	.	.	.	.	.	.
8C\J	.	.	.	.	.	.	.	.	8c\J)	.	.	16ee-\ 16ff#\	.	16aa\	.	.	.	.	.	.	.	.	.	.	.	.	.	.	.	.
.	.	.	.	.	.	.	.	.	.	.	.	16ee-\JJ 16ff#\	.	16aa\JJ	.	.	.	.	.	.	.	.	.	.	.	.	.	.	.	.
=47	=47	=47	=47	=47	=47	=47	=47	=47	=47	=47	=47	=47	=47	=47	=47	=47	=47	=47	=47	=47	=47	=47	=47	=47	=47	=47	=47	=47	=47	=47
!	!	!	!	!	!	!	!	!	!LO:TX:a:t=Col Basso:mod=	!	!	!	!	!	!	!	!	!	!	!	!	!	!	!	!	!	!	!	!	!
!	!	!	!	!	!	!	!	!	!	!	!	!	!	!	!	!LO:MO:mod=!null:null	!	!	!	!	!	!	!	!	!	!	!	!	!	!
!	!	!	!	!	!	!	!	!	!LO:TX:t=P:problem:Col Basso w tt. 47-54	!	!	!	!	!	!	!LO:N:vis=2	!	!	!	!	!	!	!	!	!	!	!	!	!	!
*	*	*	*	*	*	*	*	*	*	*	*	*2\right	*	*	*	*	*	*	*	*	*	*	*	*	*	*	*	*	*	*
8BB-\L	6_ x x	.	2.g\	.	.	2.gg/	2.dd\	.	8B-\Lyy	.	.	16dd\LL 16gg\	.	16ddd\LL	.	2.BB-/	De-	.	.	2.d\	De-	.	.	2.b-\	De-	.	.	2.gg\	De-	.
.	.	.	.	.	.	.	.	.	.	.	.	16dd\ 16gg\	.	16ddd\	.	.	.	.	.	.	.	.	.	.	.	.	.	.	.	.
8D\	.	.	.	.	.	.	.	.	8d\yy	.	.	16dd\ 16gg\	.	16ddd\	.	.	.	.	.	.	.	.	.	.	.	.	.	.	.	.
.	.	.	.	.	.	.	.	.	.	.	.	16dd\ 16gg\	.	16ddd\	.	.	.	.	.	.	.	.	.	.	.	.	.	.	.	.
8G\	.	.	.	.	.	.	.	.	8g\yy	.	.	16dd\ 16gg\	.	16ddd\	.	.	.	.	.	.	.	.	.	.	.	.	.	.	.	.
.	.	.	.	.	.	.	.	.	.	.	.	16dd\ 16gg\	.	16ddd\	.	.	.	.	.	.	.	.	.	.	.	.	.	.	.	.
8B-\	.	.	.	.	.	.	.	.	8b-\yy	.	.	16dd\ 16gg\	.	16ddd\	.	.	.	.	.	.	.	.	.	.	.	.	.	.	.	.
.	.	.	.	.	.	.	.	.	.	.	.	16dd\ 16gg\	.	16ddd\	.	.	.	.	.	.	.	.	.	.	.	.	.	.	.	.
8G\	.	.	.	.	.	.	.	.	8g\yy	.	.	16dd\ 16gg\	.	16ddd\	.	.	.	.	.	.	.	.	.	.	.	.	.	.	.	.
.	.	.	.	.	.	.	.	.	.	.	.	16dd\ 16gg\	.	16ddd\	.	.	.	.	.	.	.	.	.	.	.	.	.	.	.	.
8D\J	.	.	.	.	.	.	.	.	8d\Jyy	.	.	16dd\ 16gg\	.	16ddd\	.	.	.	.	.	.	.	.	.	.	.	.	.	.	.	.
.	.	.	.	.	.	.	.	.	.	.	.	16dd\JJ 16gg\	.	16ddd\JJ	.	.	.	.	.	.	.	.	.	.	.	.	.	.	.	.
=48	=48	=48	=48	=48	=48	=48	=48	=48	=48	=48	=48	=48	=48	=48	=48	=48	=48	=48	=48	=48	=48	=48	=48	=48	=48	=48	=48	=48	=48	=48
8BB-\L	6	.	4g\	.	.	4gg/	4dd\	.	8B-\Lyy	.	.	16dd\LL 16gg\	.	(16ddd\LL	.	4BB-/	-o	.	.	4d\	-o	.	.	4b-\	-o	.	.	4gg\	-o	.
.	.	.	.	.	.	.	.	.	.	.	.	16dd\ 16gg\	.	16ddd\	.	.	.	.	.	.	.	.	.	.	.	.	.	.	.	.
8B-\	.	.	.	.	.	.	.	.	8b-\yy	.	.	16dd\ 16gg\	.	16ddd\	.	.	.	.	.	.	.	.	.	.	.	.	.	.	.	.
.	.	.	.	.	.	.	.	.	.	.	.	16dd\JJ 16gg\	.	16ddd\JJ	.	.	.	.	.	.	.	.	.	.	.	.	.	.	.	.
8A\	.	.	4f#X\ 4a\	.	.	4ff#X/	4cc\	.	8a\yy	.	.	16dd\LL 16ff#X\	.	16ccc\LL	.	4AA/	in	.	.	4f#X\	in	.	.	4cc\	in	.	.	4dd\	in	.
.	.	.	.	.	.	.	.	.	.	.	.	16dd\ 16ff#\	.	16ccc\	.	.	.	.	.	.	.	.	.	.	.	.	.	.	.	.
8AA\	6 #4 3	.	.	.	.	.	.	.	8A\yy	.	.	16dd\ 16ff#\	.	16ccc\	.	.	.	.	.	.	.	.	.	.	.	.	.	.	.	.
.	.	.	.	.	.	.	.	.	.	.	.	16dd\JJ 16ff#\	.	16ccc\JJ	.	.	.	.	.	.	.	.	.	.	.	.	.	.	.	.
8GG\	.	.	4g\	.	.	4gg/	4b-\	.	8G\yy	.	.	16dd\LL 16gg\	.	16bb-\LL	.	4GG/	ex-	.	.	[4g\	ex-	.	.	[4b-\	ex-	.	.	(4dd\	ex-	.
.	.	.	.	.	.	.	.	.	.	.	.	16dd\ 16gg\	.	16bb-\	.	.	.	.	.	.	.	.	.	.	.	.	.	.	.	.
8G\J	.	.	.	.	.	.	.	.	8g\Jyy	.	.	16dd\ 16gg\	.	16bb-\	.	.	.	.	.	.	.	.	.	.	.	.	.	.	.	.
.	.	.	.	.	.	.	.	.	.	.	.	16dd\JJ 16gg\	.	16bb-\JJ	.	.	.	.	.	.	.	.	.	.	.	.	.	.	.	.
=49	=49	=49	=49	=49	=49	=49	=49	=49	=49	=49	=49	=49	=49	=49	=49	=49	=49	=49	=49	=49	=49	=49	=49	=49	=49	=49	=49	=49	=49	=49
!LO:PB:g=original	!	!	!	!	!	!	!	!	!	!	!	!	!	!	!	!	!	!	!	!	!	!	!	!	!	!	!	!	!	!
!LO:TX:a:t=P:problem=mixed beam	!	!	!	!	!	!	!	!	!	!	!	!	!	!	!	!	!	!	!	!	!	!	!	!	!	!	!	!	!	!
8C/L	7 5	.	4g\	.	.	4gg/	4b-\	.	8c\Lyy	.	.	16ee\LL 16gg\	.	16bb-\LL)	.	2C/	-cel-	.	.	4g\]	.	.	.	4b-\]	.	.	.	4ee\)	.	.
.	.	.	.	.	.	.	.	.	.	.	.	16ee\ 16gg\	.	16bb-\	.	.	.	.	.	.	.	.	.	.	.	.	.	.	.	.
8c\J	6 4	.	.	.	.	.	.	.	8cc\Jyy	.	.	16ee\ 16gg\	.	16bb-\	.	.	.	.	.	.	.	.	.	.	.	.	.	.	.	.
.	.	.	.	.	.	.	.	.	.	.	.	16ee\JJ 16gg\	.	16bb-\JJ	.	.	.	.	.	.	.	.	.	.	.	.	.	.	.	.
8C/L	7 5 3	.	4f\ 4a\	.	.	4ffnX/	4a\	.	8c\Lyy	.	.	16ffn\LL	.	16aa\LL	.	.	.	.	.	4f\	-cel-	.	.	4a\	-cel-	.	.	4ff\	-cel-	.
.	.	.	.	.	.	.	.	.	.	.	.	16ff\	.	16aa\	.	.	.	.	.	.	.	.	.	.	.	.	.	.	.	.
8C/	.	.	.	.	.	.	.	.	8c\yy	.	.	16ff\	.	16aa\	.	.	.	.	.	.	.	.	.	.	.	.	.	.	.	.
.	.	.	.	.	.	.	.	.	.	.	.	16ff\JJ	.	16aa\JJ	.	.	.	.	.	.	.	.	.	.	.	.	.	.	.	.
8C/	.	.	4c\ 4g\	.	.	4ee/	4g\	.	8c\yy	.	.	16b-\LL 16ee\	.	16gg\LL	.	4C/	-sis	.	.	(8c\L	-sis	.	.	4g\	-sis	.	.	4ee\	-sis	.
.	.	.	.	.	.	.	.	.	.	.	.	16b-\ 16ee\	.	16gg\	.	.	.	.	.	.	.	.	.	.	.	.	.	.	.	.
8C/J	.	.	.	.	.	.	.	.	8c\Jyy	.	.	16b-\ 16ee\	.	16gg\	.	.	.	.	.	8B-\J	.	.	.	.	.	.	.	.	.	.
.	.	.	.	.	.	.	.	.	.	.	.	16b-\JJ 16ee\	.	16gg\JJ	.	.	.	.	.	.	.	.	.	.	.	.	.	.	.	.
=50	=50	=50	=50	=50	=50	=50	=50	=50	=50	=50	=50	=50	=50	=50	=50	=50	=50	=50	=50	=50	=50	=50	=50	=50	=50	=50	=50	=50	=50	=50
!LO:TX:a:t=P:problem=mixed beam	!	!	!	!	!	!	!	!	!	!	!	!	!	!	!	!	!	!	!	!	!	!	!	!	!	!	!	!	!	!
*	*	*	*	*	*	*	*	*	*	*	*	*Xtremolo	*	*Xtremolo	*	*	*	*	*	*	*	*	*	*	*	*	*	*	*	*
8FF/L	3	.	2.F/ 2.f/	.	.	8ff/L	8a\L	.	8F/Lyy	.	.	16a\LL	.	16ff\LL	.	4F\	De-	.	.	4A\	De-	.	.	4f\	De-	.	.	4ff\	De-	.
.	.	.	.	.	.	.	.	.	.	.	.	16a\	.	16ff\	.	.	.	.	.	.	.	.	.	.	.	.	.	.	.	.
8F\J	4 2	.	.	.	.	8gg/	8b-\	.	8f/Jyy	.	.	16b-\	.	16gg\	.	.	.	.	.	.	.	.	.	.	.	.	.	.	.	.
.	.	.	.	.	.	.	.	.	.	.	.	16b-\JJ	.	16gg\JJ	.	.	.	.	.	.	.	.	.	.	.	.	.	.	.	.
8FF/L	5 3	.	.	.	.	8aa/	8cc\	.	8F/Lyy	.	.	16cc\LL	.	16aa\LL	.	8F\	-o	.	.	8A\)	-o	.	.	8f\	-o	.	.	8ff\	-o	.
.	.	.	.	.	.	.	.	.	.	.	.	16cc\	.	16aa\	.	.	.	.	.	.	.	.	.	.	.	.	.	.	.	.
8FF/	6 4	.	.	.	.	8bb-/	8dd\	.	8F/yy	.	.	16dd\	.	16bb-\	.	8r	.	.	.	8r	.	.	.	8r	.	.	.	8r	.	.
.	.	.	.	.	.	.	.	.	.	.	.	16dd\JJ	.	16bb-\JJ	.	.	.	.	.	.	.	.	.	.	.	.	.	.	.	.
8FF/	5 3	.	.	.	.	8aa/	8cc\	.	8F/yy	.	.	16cc\LL	.	16aa\LL	.	[4F\	ho-	.	.	[4F/	ho-	.	.	[4f\	ho-	.	.	[4a\	ho-	.
.	.	.	.	.	.	.	.	.	.	.	.	16cc\	.	16aa\	.	.	.	.	.	.	.	.	.	.	.	.	.	.	.	.
8FF/J	3 1	.	.	.	.	[8ff/J	8a\J	.	8F/Jyy	.	.	16a\	.	16ff\	.	.	.	.	.	.	.	.	.	.	.	.	.	.	.	.
.	.	.	.	.	.	.	.	.	.	.	.	16a\JJ	.	16ff\JJ	.	.	.	.	.	.	.	.	.	.	.	.	.	.	.	.
=51	=51	=51	=51	=51	=51	=51	=51	=51	=51	=51	=51	=51	=51	=51	=51	=51	=51	=51	=51	=51	=51	=51	=51	=51	=51	=51	=51	=51	=51	=51
!LO:TX:a:t=P:problem=mixed beam	!	!	!	!	!	!	!	!	!	!	!	!	!	!	!	!	!	!	!	!	!	!	!	!	!	!	!	!	!	!
8FF/L	3 1	.	2.F/ 2.f/	.	.	8ff/L]	8a\L	.	8F/Lyy	.	.	16a\LL	.	16ff\LL	.	8F\]	-san-	.	.	8F/]	-san-	.	.	8f\]	-san-	.	.	8a\]	-san-	.
.	.	.	.	.	.	.	.	.	.	.	.	16a\	.	16ff\	.	.	.	.	.	.	.	.	.	.	.	.	.	.	.	.
8F\J	4 2	.	.	.	.	8gg/	8b-\	.	8f/Jyy	.	.	16b-\	.	16gg\	.	8F\	-na	.	.	8G/	-na	.	.	8f\	-na	.	.	8b-\	-na	.
.	.	.	.	.	.	.	.	.	.	.	.	16b-\JJ	.	16gg\JJ	.	.	.	.	.	.	.	.	.	.	.	.	.	.	.	.
8FF/L	5 3	.	.	.	.	8aa/	8cc\	.	8F/Lyy	.	.	16cc\LL	.	16aa\LL	.	8F\	in	.	.	8A/	in	.	.	8f\	in	.	.	8cc\	in	.
.	.	.	.	.	.	.	.	.	.	.	.	16cc\	.	16aa\	.	.	.	.	.	.	.	.	.	.	.	.	.	.	.	.
8FF/	6 4	.	.	.	.	8bb-/	8dd\	.	8F/yy	.	.	16dd\	.	16bb-\	.	8F\	ex-	.	.	8B-/	ex-	.	.	8f\	ex-	.	.	8dd\	ex-	.
.	.	.	.	.	.	.	.	.	.	.	.	16dd\JJ	.	16bb-\JJ	.	.	.	.	.	.	.	.	.	.	.	.	.	.	.	.
8FF/	5 3	.	.	.	.	8aa/	8cc\	.	8F/yy	.	.	16cc\LL	.	16aa\LL	.	8F\	-cel-	.	.	8A/	-cel-	.	.	8f\	-cel-	.	.	8cc\	-cel-	.
.	.	.	.	.	.	.	.	.	.	.	.	16cc\	.	16aa\	.	.	.	.	.	.	.	.	.	.	.	.	.	.	.	.
8FF/J	3 1	.	.	.	.	8ff/J	8a\J	.	8F/Jyy	.	.	16a\	.	16ff\	.	8F\	-sis	.	.	8c/	-sis	.	.	8a\	-sis	.	.	8ff\	-sis	.
.	.	.	.	.	.	.	.	.	.	.	.	16a\JJ	.	16ff\JJ	.	.	.	.	.	.	.	.	.	.	.	.	.	.	.	.
=52	=52	=52	=52	=52	=52	=52	=52	=52	=52	=52	=52	=52	=52	=52	=52	=52	=52	=52	=52	=52	=52	=52	=52	=52	=52	=52	=52	=52	=52	=52
*	*	*	*	*	*	*	*	*	*	*	*	*tremolo	*	*	*	*	*	*	*	*	*	*	*	*	*	*	*	*	*	*
8FF/L	7 5	.	2.F/ 2.f/	.	.	2.ee/	2.g\	.	8F/Lyy	.	.	16g\LL 16b-\	.	16gg\LL	.	2.F\	De-	.	.	2.B-/	De-	.	.	2.g\	De-	.	.	2.ee\	De-	.
.	.	.	.	.	.	.	.	.	.	.	.	16g\ 16b-\	.	16gg\	.	.	.	.	.	.	.	.	.	.	.	.	.	.	.	.
8FF/	.	.	.	.	.	.	.	.	8F/Jyy	.	.	16g\ 16b-\	.	16eee\	.	.	.	.	.	.	.	.	.	.	.	.	.	.	.	.
.	.	.	.	.	.	.	.	.	.	.	.	16g\ 16b-\	.	16eee\JJ	.	.	.	.	.	.	.	.	.	.	.	.	.	.	.	.
*	*	*	*	*	*	*	*	*	*	*	*	*	*	*tremolo	*	*	*	*	*	*	*	*	*	*	*	*	*	*	*	*
8FF/	.	.	.	.	.	.	.	.	8F/Lyy	.	.	16g\ 16b-\	.	16eee\LL	.	.	.	.	.	.	.	.	.	.	.	.	.	.	.	.
.	.	.	.	.	.	.	.	.	.	.	.	16g\ 16b-\	.	16eee\	.	.	.	.	.	.	.	.	.	.	.	.	.	.	.	.
8FF/	.	.	.	.	.	.	.	.	8F/yy	.	.	16g\ 16b-\	.	16eee\	.	.	.	.	.	.	.	.	.	.	.	.	.	.	.	.
.	.	.	.	.	.	.	.	.	.	.	.	16g\ 16b-\	.	16eee\	.	.	.	.	.	.	.	.	.	.	.	.	.	.	.	.
8FF/	.	.	.	.	.	.	.	.	8F/yy	.	.	16g\ 16b-\	.	16eee\	.	.	.	.	.	.	.	.	.	.	.	.	.	.	.	.
.	.	.	.	.	.	.	.	.	.	.	.	16g\ 16b-\	.	16eee\	.	.	.	.	.	.	.	.	.	.	.	.	.	.	.	.
8FF/J	.	.	.	.	.	.	.	.	8F/Jyy	.	.	16g\ 16b-\	.	16eee\	.	.	.	.	.	.	.	.	.	.	.	.	.	.	.	.
.	.	.	.	.	.	.	.	.	.	.	.	16g\JJ 16b-\	.	16eee\JJ	.	.	.	.	.	.	.	.	.	.	.	.	.	.	.	.
=53	=53	=53	=53	=53	=53	=53	=53	=53	=53	=53	=53	=53	=53	=53	=53	=53	=53	=53	=53	=53	=53	=53	=53	=53	=53	=53	=53	=53	=53	=53
!	!	!	!	!	!	!	!	!	!	!	!	!	!	!	!	!	!	!	!	!LO:MO:mod=!null:null	!	!	!	!	!	!	!	!	!	!
!	!	!	!	!	!	!	!	!	!	!	!	!	!	!	!	!	!	!	!	!LO:N:vis=2.	!	!	!	!	!	!	!	!	!	!
4FF/	.	.	4F/ 4f/	.	.	4ff/	4a\	.	4F/yy	.	.	4f/ 4a/	.	4fff\	.	2F\	-o	.	.	2A/	-o	.	.	2f\	-o	.	.	2ff\	-o	.
4FF/	.	.	4A/ 4f/	.	.	4ff/	4a\	.	4F/yy	.	.	4A/ 4f/ 4cc/	.	4f\ 4a\ 4ff\	.	.	.	.	.	.	.	.	.	.	.	.	.	.	.	.
4FF/	.	.	4A/ 4f/	.	.	4ff/	4a\	.	4F/yy	.	.	4A/ 4f/ 4cc/	.	4f\ 4a\ 4ff\	.	4r	.	.	.	4r	.	.	.	4r	.	.	.	4r	.	.
=54	=54	=54	=54	=54	=54	=54	=54	=54	=54	=54	=54	=54	=54	=54	=54	=54	=54	=54	=54	=54	=54	=54	=54	=54	=54	=54	=54	=54	=54	=54
2FF/	.	.	2A/ 2f/	.	.	2ff/	2a\	.	2F/yy	.	.	2A/ 2f/ 2cc/	.	2f\ 2a\ 2ff\	.	2.r	.	.	.	2.r	.	.	.	2.r	.	.	.	2.r	.	.
4r	.	.	4r	.	.	4r	4ryy	.	4ryy	.	.	4r	.	4r	.	.	.	.	.	.	.	.	.	.	.	.	.	.	.	.
*	*	*	*	*	*	*v	*v	*	*	*	*	*	*	*	*	*	*	*	*	*	*	*	*	*	*	*	*	*	*	*
==	==	==	==	==	==	==	==	==	==	==	==	==	==	==	==	==	==	==	==	==	==	==	==	==	==	==	==	==	==
*-	*-	*-	*-	*-	*-	*-	*-	*-	*-	*-	*-	*-	*-	*-	*-	*-	*-	*-	*-	*-	*-	*-	*-	*-	*-	*-	*-	*-	*-
!!LO:MO:ori
!!!system-decoration: s1,s2,s3,s4,s5,s6,s7,s8,s9,s10
!!LO:MO:end
!!LO:MO:mod
!! !!!system-decoration: [(s1,s2,s3,s4)],[(s5,s6,s7)],[s8],[s9],[s10]
!!LO:MO:end
!!!RDF**kern: > = above
!!!RDF**kern: < = below
!!!filter-modern: sic -sq | autostem -r | shed -e "s/^(X?)rep$/$1REP/I" | shed -k -e "s/r[a-gA-G]+/r/D" | shed -e "s/LO:DY:(a|b|rj)/LO:dy:$1/L" | shed -k -e "s/yy//" | shed -e "s/^(\d+[\/\\]right)/$1yy/I; s/^(\d+[\/\\]left)/$1yy/I" | shed -e "s/TX(.*):t=P:/tx$1:t=P:/LG" | modori -m
!!!EED: Leszek Kubiak
!!!EEV: 2020-06-12
!!!ENC: Andrzej Kubiczek
!!!END: 2020-04-07
!!!ENC-modern: Leszek Kubiak
!!!END-modern: 2022-08-16
!!!YEC: Copyright 2022 Narodowy Instytut Fryderyka Chopina (https://polishscores.org)
!!!YEM: License CC-BY-4.0 (https://creativecommons.org/licenses/by/4.0)
